(G-CODE GENERATED BY FLATCAM v8.994 - www.flatcam.org - Version Date: 2020/11/7)

(Name: SolarSoundModule-Edge_Cuts.gbr_cutout_cnc)
(Type: G-code from Geometry)
(Units: MM)

(Created on Monday, 25 March 2024 at 16:43)

(This preprocessor is the default preprocessor used by FlatCAM.)
(It is made to work with MACH3 compatible motion controllers.)

(TOOL DIAMETER: 1.2 mm)
(Feedrate_XY: 120.0 mm/min)
(Feedrate_Z: 60.0 mm/min)
(Feedrate rapids 1500.0 mm/min)

(Z_Cut: -1.7499999999999996 mm)
(DepthPerCut: 0.5 mm <=>4 passes)
(Z_Move: 2.0 mm)
(Z Start: None mm)
(Z End: 15.0 mm)
(X,Y End: None mm)
(Steps per circle: 64)
(Preprocessor Geometry: default)

(X range:   -0.7500 ...   35.7500  mm)
(Y range:   -0.7500 ...   35.7500  mm)

(Spindle Speed: 0.0 RPM)
G21
G90
G94

G01 F120.00

M5
G00 Z15.0000
G00 X0.0000 Y0.0000
T1
M6    
(MSG, Change to Tool Dia = 1.2000)
M0
G00 Z15.0000

M03
G01 F120.00
G00 X35.7500 Y35.0000
G01 F60.00
G01 Z-0.5000
G01 F120.00
G01 X35.7500 Y0.0000
G01 X35.7489 Y-0.0393
G01 X35.7422 Y-0.1076
G01 X35.7281 Y-0.1798
G01 X35.7070 Y-0.2503
G01 X35.6790 Y-0.3184
G01 X35.6445 Y-0.3835
G01 X35.6038 Y-0.4448
G01 X35.5573 Y-0.5018
G01 X35.5055 Y-0.5540
G01 X35.4487 Y-0.6009
G01 X35.3877 Y-0.6420
G01 X35.3229 Y-0.6769
G01 X35.2550 Y-0.7053
G01 X35.1846 Y-0.7269
G01 X35.1125 Y-0.7415
G01 X35.0393 Y-0.7489
G01 X35.0000 Y-0.7500
G01 X0.0000 Y-0.7500
G01 X-0.0393 Y-0.7489
G01 X-0.1076 Y-0.7422
G01 X-0.1798 Y-0.7281
G01 X-0.2503 Y-0.7070
G01 X-0.3184 Y-0.6790
G01 X-0.3835 Y-0.6445
G01 X-0.4448 Y-0.6038
G01 X-0.5018 Y-0.5573
G01 X-0.5540 Y-0.5055
G01 X-0.6009 Y-0.4487
G01 X-0.6420 Y-0.3877
G01 X-0.6769 Y-0.3229
G01 X-0.7053 Y-0.2550
G01 X-0.7269 Y-0.1846
G01 X-0.7415 Y-0.1125
G01 X-0.7489 Y-0.0393
G01 X-0.7500 Y0.0000
G01 X-0.7500 Y35.0000
G01 X-0.7489 Y35.0393
G01 X-0.7422 Y35.1076
G01 X-0.7281 Y35.1798
G01 X-0.7070 Y35.2503
G01 X-0.6790 Y35.3184
G01 X-0.6445 Y35.3835
G01 X-0.6038 Y35.4448
G01 X-0.5573 Y35.5018
G01 X-0.5055 Y35.5540
G01 X-0.4487 Y35.6009
G01 X-0.3877 Y35.6420
G01 X-0.3229 Y35.6769
G01 X-0.2550 Y35.7053
G01 X-0.1846 Y35.7269
G01 X-0.1125 Y35.7415
G01 X-0.0393 Y35.7489
G01 X0.0000 Y35.7500
G01 X35.0000 Y35.7500
G01 X35.0393 Y35.7489
G01 X35.1125 Y35.7415
G01 X35.1846 Y35.7269
G01 X35.2550 Y35.7053
G01 X35.3229 Y35.6769
G01 X35.3877 Y35.6420
G01 X35.4487 Y35.6009
G01 X35.5055 Y35.5540
G01 X35.5573 Y35.5018
G01 X35.6038 Y35.4448
G01 X35.6445 Y35.3835
G01 X35.6790 Y35.3184
G01 X35.7070 Y35.2503
G01 X35.7281 Y35.1798
G01 X35.7422 Y35.1076
G01 X35.7489 Y35.0393
G01 X35.7500 Y35.0000
G00 X35.7500 Y35.0000
G01 F60.00
G01 Z-1.0000
G01 F120.00
G01 X35.7489 Y35.0393
G01 X35.7422 Y35.1076
G01 X35.7281 Y35.1798
G01 X35.7070 Y35.2503
G01 X35.6790 Y35.3184
G01 X35.6445 Y35.3835
G01 X35.6038 Y35.4448
G01 X35.5573 Y35.5018
G01 X35.5055 Y35.5540
G01 X35.4487 Y35.6009
G01 X35.3877 Y35.6420
G01 X35.3229 Y35.6769
G01 X35.2550 Y35.7053
G01 X35.1846 Y35.7269
G01 X35.1125 Y35.7415
G01 X35.0393 Y35.7489
G01 X35.0000 Y35.7500
G01 X0.0000 Y35.7500
G01 X-0.0393 Y35.7489
G01 X-0.1125 Y35.7415
G01 X-0.1846 Y35.7269
G01 X-0.2550 Y35.7053
G01 X-0.3229 Y35.6769
G01 X-0.3877 Y35.6420
G01 X-0.4487 Y35.6009
G01 X-0.5055 Y35.5540
G01 X-0.5573 Y35.5018
G01 X-0.6038 Y35.4448
G01 X-0.6445 Y35.3835
G01 X-0.6790 Y35.3184
G01 X-0.7070 Y35.2503
G01 X-0.7281 Y35.1798
G01 X-0.7422 Y35.1076
G01 X-0.7489 Y35.0393
G01 X-0.7500 Y35.0000
G01 X-0.7500 Y0.0000
G01 X-0.7489 Y-0.0393
G01 X-0.7415 Y-0.1125
G01 X-0.7269 Y-0.1846
G01 X-0.7053 Y-0.2550
G01 X-0.6769 Y-0.3229
G01 X-0.6420 Y-0.3877
G01 X-0.6009 Y-0.4487
G01 X-0.5540 Y-0.5055
G01 X-0.5018 Y-0.5573
G01 X-0.4448 Y-0.6038
G01 X-0.3835 Y-0.6445
G01 X-0.3184 Y-0.6790
G01 X-0.2503 Y-0.7070
G01 X-0.1798 Y-0.7281
G01 X-0.1076 Y-0.7422
G01 X-0.0393 Y-0.7489
G01 X0.0000 Y-0.7500
G01 X35.0000 Y-0.7500
G01 X35.0393 Y-0.7489
G01 X35.1125 Y-0.7415
G01 X35.1846 Y-0.7269
G01 X35.2550 Y-0.7053
G01 X35.3229 Y-0.6769
G01 X35.3877 Y-0.6420
G01 X35.4487 Y-0.6009
G01 X35.5055 Y-0.5540
G01 X35.5573 Y-0.5018
G01 X35.6038 Y-0.4448
G01 X35.6445 Y-0.3835
G01 X35.6790 Y-0.3184
G01 X35.7070 Y-0.2503
G01 X35.7281 Y-0.1798
G01 X35.7422 Y-0.1076
G01 X35.7489 Y-0.0393
G01 X35.7500 Y0.0000
G01 X35.7500 Y35.0000
G00 X35.7500 Y35.0000
G01 F60.00
G01 Z-1.5000
G01 F120.00
G01 X35.7500 Y0.0000
G01 X35.7489 Y-0.0393
G01 X35.7422 Y-0.1076
G01 X35.7281 Y-0.1798
G01 X35.7070 Y-0.2503
G01 X35.6790 Y-0.3184
G01 X35.6445 Y-0.3835
G01 X35.6038 Y-0.4448
G01 X35.5573 Y-0.5018
G01 X35.5055 Y-0.5540
G01 X35.4487 Y-0.6009
G01 X35.3877 Y-0.6420
G01 X35.3229 Y-0.6769
G01 X35.2550 Y-0.7053
G01 X35.1846 Y-0.7269
G01 X35.1125 Y-0.7415
G01 X35.0393 Y-0.7489
G01 X35.0000 Y-0.7500
G01 X0.0000 Y-0.7500
G01 X-0.0393 Y-0.7489
G01 X-0.1076 Y-0.7422
G01 X-0.1798 Y-0.7281
G01 X-0.2503 Y-0.7070
G01 X-0.3184 Y-0.6790
G01 X-0.3835 Y-0.6445
G01 X-0.4448 Y-0.6038
G01 X-0.5018 Y-0.5573
G01 X-0.5540 Y-0.5055
G01 X-0.6009 Y-0.4487
G01 X-0.6420 Y-0.3877
G01 X-0.6769 Y-0.3229
G01 X-0.7053 Y-0.2550
G01 X-0.7269 Y-0.1846
G01 X-0.7415 Y-0.1125
G01 X-0.7489 Y-0.0393
G01 X-0.7500 Y0.0000
G01 X-0.7500 Y35.0000
G01 X-0.7489 Y35.0393
G01 X-0.7422 Y35.1076
G01 X-0.7281 Y35.1798
G01 X-0.7070 Y35.2503
G01 X-0.6790 Y35.3184
G01 X-0.6445 Y35.3835
G01 X-0.6038 Y35.4448
G01 X-0.5573 Y35.5018
G01 X-0.5055 Y35.5540
G01 X-0.4487 Y35.6009
G01 X-0.3877 Y35.6420
G01 X-0.3229 Y35.6769
G01 X-0.2550 Y35.7053
G01 X-0.1846 Y35.7269
G01 X-0.1125 Y35.7415
G01 X-0.0393 Y35.7489
G01 X0.0000 Y35.7500
G01 X35.0000 Y35.7500
G01 X35.0393 Y35.7489
G01 X35.1125 Y35.7415
G01 X35.1846 Y35.7269
G01 X35.2550 Y35.7053
G01 X35.3229 Y35.6769
G01 X35.3877 Y35.6420
G01 X35.4487 Y35.6009
G01 X35.5055 Y35.5540
G01 X35.5573 Y35.5018
G01 X35.6038 Y35.4448
G01 X35.6445 Y35.3835
G01 X35.6790 Y35.3184
G01 X35.7070 Y35.2503
G01 X35.7281 Y35.1798
G01 X35.7422 Y35.1076
G01 X35.7489 Y35.0393
G01 X35.7500 Y35.0000
G00 X35.7500 Y35.0000
G01 F60.00
G01 Z-1.7500
G01 F120.00
G01 X35.7489 Y35.0393
G01 X35.7422 Y35.1076
G01 X35.7281 Y35.1798
G01 X35.7070 Y35.2503
G01 X35.6790 Y35.3184
G01 X35.6445 Y35.3835
G01 X35.6038 Y35.4448
G01 X35.5573 Y35.5018
G01 X35.5055 Y35.5540
G01 X35.4487 Y35.6009
G01 X35.3877 Y35.6420
G01 X35.3229 Y35.6769
G01 X35.2550 Y35.7053
G01 X35.1846 Y35.7269
G01 X35.1125 Y35.7415
G01 X35.0393 Y35.7489
G01 X35.0000 Y35.7500
G01 X0.0000 Y35.7500
G01 X-0.0393 Y35.7489
G01 X-0.1125 Y35.7415
G01 X-0.1846 Y35.7269
G01 X-0.2550 Y35.7053
G01 X-0.3229 Y35.6769
G01 X-0.3877 Y35.6420
G01 X-0.4487 Y35.6009
G01 X-0.5055 Y35.5540
G01 X-0.5573 Y35.5018
G01 X-0.6038 Y35.4448
G01 X-0.6445 Y35.3835
G01 X-0.6790 Y35.3184
G01 X-0.7070 Y35.2503
G01 X-0.7281 Y35.1798
G01 X-0.7422 Y35.1076
G01 X-0.7489 Y35.0393
G01 X-0.7500 Y35.0000
G01 X-0.7500 Y0.0000
G01 X-0.7489 Y-0.0393
G01 X-0.7415 Y-0.1125
G01 X-0.7269 Y-0.1846
G01 X-0.7053 Y-0.2550
G01 X-0.6769 Y-0.3229
G01 X-0.6420 Y-0.3877
G01 X-0.6009 Y-0.4487
G01 X-0.5540 Y-0.5055
G01 X-0.5018 Y-0.5573
G01 X-0.4448 Y-0.6038
G01 X-0.3835 Y-0.6445
G01 X-0.3184 Y-0.6790
G01 X-0.2503 Y-0.7070
G01 X-0.1798 Y-0.7281
G01 X-0.1076 Y-0.7422
G01 X-0.0393 Y-0.7489
G01 X0.0000 Y-0.7500
G01 X35.0000 Y-0.7500
G01 X35.0393 Y-0.7489
G01 X35.1125 Y-0.7415
G01 X35.1846 Y-0.7269
G01 X35.2550 Y-0.7053
G01 X35.3229 Y-0.6769
G01 X35.3877 Y-0.6420
G01 X35.4487 Y-0.6009
G01 X35.5055 Y-0.5540
G01 X35.5573 Y-0.5018
G01 X35.6038 Y-0.4448
G01 X35.6445 Y-0.3835
G01 X35.6790 Y-0.3184
G01 X35.7070 Y-0.2503
G01 X35.7281 Y-0.1798
G01 X35.7422 Y-0.1076
G01 X35.7489 Y-0.0393
G01 X35.7500 Y0.0000
G01 X35.7500 Y35.0000
G00 Z2.0000
M05
G00 Z2.0000
G00 Z15.00


