(G-CODE GENERATED BY FLATCAM v8.994 - www.flatcam.org - Version Date: 2020/11/7)

(Name: SolarSoundModule-PTH.drl_edit_cnc)
(Type: G-code from Geometry)
(Units: MM)

(Created on Monday, 25 March 2024 at 16:38)

(This preprocessor is the default preprocessor used by FlatCAM.)
(It is made to work with MACH3 compatible motion controllers.)


(TOOLS DIAMETER: )
(Tool: 1 -> Dia: 0.8)

(FEEDRATE Z: )
(Tool: 1 -> Feedrate: 300.0)

(FEEDRATE RAPIDS: )
(Tool: 1 -> Feedrate Rapids: 1500)

(Z_CUT: )
(Tool: 1 -> Z_Cut: -1.7)

(Tools Offset: )
(Tool: 1 -> Offset Z: 0.0)

(Z_MOVE: )
(Tool: 1 -> Z_Move: 2.0)

(Z Toolchange: 15 mm)
(X,Y Toolchange: 0.0000, 0.0000 mm)
(Z Start: None mm)
(Z End: 0.5 mm)
(X,Y End: None mm)
(Steps per circle: 64)
(Preprocessor Excellon: default)

(X range:    4.6000 ...   31.1500  mm)
(Y range:    4.8150 ...   30.3650  mm)

(Spindle Speed: 0 RPM)
G21
G90
G94

G01 F300.00

M5
G00 Z15.0000
T1
G00 X0.0000 Y0.0000                
M6
(MSG, Change to Tool Dia = 0.8000 ||| Total drills for tool T1 = 35)
M0
G00 Z15.0000

G01 F300.00
M03
G00 X30.7500 Y29.9650
G01 Z-1.7000
G01 Z0
G00 Z2.0000
G00 X25.2500 Y29.9650
G01 Z-1.7000
G01 Z0
G00 Z2.0000
G00 X16.5150 Y29.9650
G01 Z-1.7000
G01 Z0
G00 Z2.0000
G00 X13.9750 Y29.9650
G01 Z-1.7000
G01 Z0
G00 Z2.0000
G00 X5.0000 Y29.9650
G01 Z-1.7000
G01 Z0
G00 Z2.0000
G00 X5.5000 Y18.0000
G01 Z-1.7000
G01 Z0
G00 Z2.0000
G00 X5.0000 Y14.5000
G01 Z-1.7000
G01 Z0
G00 Z2.0000
G00 X5.0000 Y12.0000
G01 Z-1.7000
G01 Z0
G00 Z2.0000
G00 X5.0000 Y5.4650
G01 Z-1.7000
G01 Z0
G00 Z2.0000
G00 X8.9200 Y5.2150
G01 Z-1.7000
G01 Z0
G00 Z2.0000
G00 X11.2050 Y9.3850
G01 Z-1.7000
G01 Z0
G00 Z2.0000
G00 X11.2050 Y11.9250
G01 Z-1.7000
G01 Z0
G00 Z2.0000
G00 X11.2050 Y14.4650
G01 Z-1.7000
G01 Z0
G00 Z2.0000
G00 X11.2050 Y17.0050
G01 Z-1.7000
G01 Z0
G00 Z2.0000
G00 X11.2050 Y19.5450
G01 Z-1.7000
G01 Z0
G00 Z2.0000
G00 X11.2050 Y22.0850
G01 Z-1.7000
G01 Z0
G00 Z2.0000
G00 X11.2050 Y24.6250
G01 Z-1.7000
G01 Z0
G00 Z2.0000
G00 X18.8250 Y24.6250
G01 Z-1.7000
G01 Z0
G00 Z2.0000
G00 X18.8250 Y22.0850
G01 Z-1.7000
G01 Z0
G00 Z2.0000
G00 X18.8250 Y19.5450
G01 Z-1.7000
G01 Z0
G00 Z2.0000
G00 X18.8250 Y17.0050
G01 Z-1.7000
G01 Z0
G00 Z2.0000
G00 X18.8250 Y14.4650
G01 Z-1.7000
G01 Z0
G00 Z2.0000
G00 X18.8250 Y11.9250
G01 Z-1.7000
G01 Z0
G00 Z2.0000
G00 X18.8250 Y9.3850
G01 Z-1.7000
G01 Z0
G00 Z2.0000
G00 X19.0800 Y5.2150
G01 Z-1.7000
G01 Z0
G00 Z2.0000
G00 X23.2500 Y5.5000
G01 Z-1.7000
G01 Z0
G00 Z2.0000
G00 X27.0000 Y5.5000
G01 Z-1.7000
G01 Z0
G00 Z2.0000
G00 X30.7500 Y5.2950
G01 Z-1.7000
G01 Z0
G00 Z2.0000
G00 X25.2500 Y11.0000
G01 Z-1.7000
G01 Z0
G00 Z2.0000
G00 X25.2500 Y13.5000
G01 Z-1.7000
G01 Z0
G00 Z2.0000
G00 X30.7500 Y15.4550
G01 Z-1.7000
G01 Z0
G00 Z2.0000
G00 X30.7500 Y19.8050
G01 Z-1.7000
G01 Z0
G00 Z2.0000
G00 X25.2500 Y17.9650
G01 Z-1.7000
G01 Z0
G00 Z2.0000
G00 X25.2500 Y21.5800
G01 Z-1.7000
G01 Z0
G00 Z2.0000
G00 X25.2500 Y24.0800
G01 Z-1.7000
G01 Z0
G00 Z2.0000
M05
G00 Z0.50


