(G-CODE GENERATED BY FLATCAM v8.994 - www.flatcam.org - Version Date: 2020/11/7)

(Name: SolarSoundModule-B_Cu.gbr_iso_combined_cnc)
(Type: G-code from Geometry)
(Units: MM)

(Created on Monday, 25 March 2024 at 16:27)

(This preprocessor is the default preprocessor used by FlatCAM.)
(It is made to work with MACH3 compatible motion controllers.)

(TOOL DIAMETER: 0.2808 mm)
(Feedrate_XY: 500.0 mm/min)
(Feedrate_Z: 60.0 mm/min)
(Feedrate rapids 1500.0 mm/min)

(Z_Cut: -0.07 mm)
(Z_Move: 1.0 mm)
(Z Start: None mm)
(Z End: 15.0 mm)
(X,Y End: None mm)
(Steps per circle: 64)
(Preprocessor Geometry: default)

(X range:    0.3820 ...   33.6180  mm)
(Y range:    1.3820 ...   33.6180  mm)

(Spindle Speed: 15000.0 RPM)
G21
G90
G94

G01 F500.00

M5
G00 Z15.0000
G00 X0.0000 Y0.0000
T2
M6    
(MSG, Change to Tool Dia = 0.2808)
M0
G00 Z15.0000

M03 S15000.0
G01 F500.00
G00 X3.5322 Y4.9814
G01 F60.00
G01 Z-0.0700
G01 F500.00
G01 X3.5322 Y5.3517
G01 X2.6180 Y6.2659
G01 X2.6180 Y5.8956
G01 X3.5322 Y4.9814
G00 Z1.0000
G00 X8.0656 Y4.8243
G01 F60.00
G01 Z-0.0700
G01 F500.00
G01 X8.0906 Y4.7717
G01 X8.1362 Y4.6954
G01 X8.1421 Y4.6869
G01 X8.1909 Y4.6211
G01 X8.1976 Y4.6132
G01 X8.2550 Y4.5500
G01 X8.3182 Y4.4926
G01 X8.3261 Y4.4859
G01 X8.3919 Y4.4371
G01 X8.4034 Y4.4294
G01 X8.4767 Y4.3856
G01 X8.5538 Y4.3490
G01 X8.5666 Y4.3437
G01 X8.6470 Y4.3151
G01 X8.7298 Y4.2942
G01 X8.7399 Y4.2920
G01 X8.8210 Y4.2800
G01 X8.8347 Y4.2786
G01 X8.9200 Y4.2746
G01 X9.0053 Y4.2786
G01 X9.0190 Y4.2800
G01 X9.1035 Y4.2927
G01 X9.1930 Y4.3151
G01 X9.2734 Y4.3437
G01 X9.2862 Y4.3490
G01 X9.3633 Y4.3856
G01 X9.4366 Y4.4294
G01 X9.4481 Y4.4371
G01 X9.5166 Y4.4881
G01 X9.5800 Y4.5453
G01 X9.5897 Y4.5550
G01 X9.6469 Y4.6184
G01 X9.7019 Y4.6925
G01 X9.7494 Y4.7717
G01 X9.7860 Y4.8488
G01 X9.7901 Y4.8583
G01 X9.8199 Y4.9420
G01 X9.8408 Y5.0248
G01 X9.8430 Y5.0349
G01 X9.8550 Y5.1160
G01 X9.8562 Y5.1263
G01 X9.8604 Y5.2116
G01 X9.8602 Y5.2219
G01 X9.8590 Y5.2479
G01 X11.6580 Y7.0470
G01 X11.6957 Y7.0884
G01 X11.7045 Y7.0990
G01 X11.7377 Y7.1441
G01 X11.7683 Y7.1950
G01 X11.7731 Y7.2042
G01 X11.7969 Y7.2548
G01 X11.8181 Y7.3140
G01 X11.8333 Y7.3750
G01 X11.8417 Y7.4304
G01 X11.8431 Y7.4441
G01 X11.8457 Y7.5000
G01 X11.8457 Y8.4768
G01 X11.8713 Y8.4833
G01 X11.8813 Y8.4861
G01 X11.9617 Y8.5149
G01 X11.9712 Y8.5190
G01 X12.0452 Y8.5541
G01 X12.0543 Y8.5590
G01 X12.1275 Y8.6031
G01 X12.1989 Y8.6559
G01 X12.2068 Y8.6626
G01 X12.2700 Y8.7200
G01 X12.3319 Y8.7884
G01 X12.3869 Y8.8625
G01 X12.4327 Y8.9387
G01 X12.4375 Y8.9479
G01 X12.4738 Y9.0251
G01 X12.5049 Y9.1120
G01 X12.5273 Y9.2015
G01 X12.5409 Y9.2928
G01 X12.5454 Y9.3850
G01 X12.5409 Y9.4772
G01 X12.5273 Y9.5685
G01 X12.5059 Y9.6547
G01 X12.5027 Y9.6645
G01 X12.4763 Y9.7384
G01 X12.4710 Y9.7512
G01 X12.4344 Y9.8283
G01 X12.3906 Y9.9016
G01 X12.3829 Y9.9131
G01 X12.3319 Y9.9816
G01 X12.2747 Y10.0450
G01 X12.2650 Y10.0547
G01 X12.2016 Y10.1119
G01 X12.1331 Y10.1629
G01 X12.1216 Y10.1706
G01 X12.0483 Y10.2144
G01 X11.9649 Y10.2538
G01 X11.8845 Y10.2827
G01 X11.8713 Y10.2867
G01 X11.7952 Y10.3058
G01 X11.7851 Y10.3080
G01 X11.6972 Y10.3209
G01 X11.6050 Y10.3254
G01 X10.8016 Y10.3254
G01 X10.7128 Y10.3209
G01 X10.6283 Y10.3085
G01 X10.6148 Y10.3058
G01 X10.5387 Y10.2867
G01 X10.5255 Y10.2827
G01 X10.4451 Y10.2538
G01 X10.3617 Y10.2144
G01 X10.2884 Y10.1706
G01 X10.2769 Y10.1629
G01 X10.2084 Y10.1119
G01 X10.1400 Y10.0500
G01 X10.0781 Y9.9816
G01 X10.0271 Y9.9131
G01 X10.0194 Y9.9016
G01 X9.9756 Y9.8283
G01 X9.9390 Y9.7512
G01 X9.9337 Y9.7384
G01 X9.9051 Y9.6580
G01 X9.8827 Y9.5685
G01 X9.8700 Y9.4840
G01 X9.8686 Y9.4703
G01 X9.8646 Y9.3850
G01 X9.8686 Y9.2997
G01 X9.8700 Y9.2860
G01 X9.8820 Y9.2049
G01 X9.8842 Y9.1948
G01 X9.9033 Y9.1187
G01 X9.9073 Y9.1055
G01 X9.9362 Y9.0251
G01 X9.9756 Y8.9417
G01 X10.0194 Y8.8684
G01 X10.0271 Y8.8569
G01 X10.0781 Y8.7884
G01 X10.1376 Y8.7225
G01 X10.1450 Y8.7153
G01 X10.2032 Y8.6626
G01 X10.2138 Y8.6538
G01 X10.2825 Y8.6031
G01 X10.3587 Y8.5573
G01 X10.3679 Y8.5525
G01 X10.4388 Y8.5190
G01 X10.4483 Y8.5149
G01 X10.5287 Y8.4861
G01 X10.5387 Y8.4833
G01 X10.5643 Y8.4768
G01 X10.5643 Y7.7654
G01 X8.9529 Y6.1540
G01 X8.9269 Y6.1552
G01 X8.9166 Y6.1554
G01 X8.8347 Y6.1514
G01 X8.8210 Y6.1500
G01 X8.7433 Y6.1385
G01 X8.7332 Y6.1366
G01 X8.6503 Y6.1159
G01 X8.6405 Y6.1127
G01 X8.6206 Y6.1057
G01 X5.9904 Y6.1057
G01 X5.9904 Y6.3184
G01 X5.9897 Y6.3288
G01 X5.9889 Y6.3356
G01 X5.9877 Y6.3424
G01 X5.9853 Y6.3524
G01 X5.9822 Y6.3623
G01 X5.9797 Y6.3687
G01 X5.9769 Y6.3750
G01 X5.9722 Y6.3842
G01 X5.9667 Y6.3930
G01 X5.9628 Y6.3986
G01 X5.9563 Y6.4067
G01 X5.9517 Y6.4118
G01 X5.9468 Y6.4167
G01 X5.9391 Y6.4235
G01 X5.9308 Y6.4298
G01 X5.9251 Y6.4336
G01 X5.9192 Y6.4372
G01 X5.9100 Y6.4419
G01 X5.9005 Y6.4460
G01 X5.8940 Y6.4483
G01 X5.8841 Y6.4512
G01 X5.8740 Y6.4533
G01 X5.8603 Y6.4550
G01 X5.8500 Y6.4554
G01 X4.9156 Y6.4554
G01 X3.9057 Y7.4654
G01 X3.9057 Y19.8593
G01 X6.8396 Y19.8593
G01 X9.8842 Y16.8148
G01 X9.9051 Y16.7320
G01 X9.9337 Y16.6516
G01 X9.9390 Y16.6388
G01 X9.9756 Y16.5617
G01 X10.0231 Y16.4825
G01 X10.0738 Y16.4138
G01 X10.0826 Y16.4032
G01 X10.1400 Y16.3400
G01 X10.2084 Y16.2781
G01 X10.2769 Y16.2271
G01 X10.2884 Y16.2194
G01 X10.3617 Y16.1756
G01 X10.4388 Y16.1390
G01 X10.4516 Y16.1337
G01 X10.5320 Y16.1051
G01 X10.6148 Y16.0842
G01 X10.6283 Y16.0815
G01 X10.7128 Y16.0691
G01 X10.7981 Y16.0648
G01 X11.6119 Y16.0648
G01 X11.6903 Y16.0686
G01 X11.7040 Y16.0700
G01 X11.7885 Y16.0827
G01 X11.8713 Y16.1033
G01 X11.8845 Y16.1073
G01 X11.9649 Y16.1362
G01 X12.0421 Y16.1725
G01 X12.0543 Y16.1790
G01 X12.1275 Y16.2231
G01 X12.2016 Y16.2781
G01 X12.2700 Y16.3400
G01 X12.3274 Y16.4032
G01 X12.3362 Y16.4138
G01 X12.3829 Y16.4769
G01 X12.3906 Y16.4884
G01 X12.4344 Y16.5617
G01 X12.4738 Y16.6451
G01 X12.5049 Y16.7320
G01 X12.5258 Y16.8148
G01 X12.5285 Y16.8283
G01 X12.5400 Y16.9060
G01 X12.5414 Y16.9197
G01 X12.5454 Y17.0050
G01 X12.5409 Y17.0972
G01 X12.5273 Y17.1885
G01 X12.5049 Y17.2780
G01 X12.4763 Y17.3584
G01 X12.4710 Y17.3712
G01 X12.4344 Y17.4483
G01 X12.3906 Y17.5216
G01 X12.3829 Y17.5331
G01 X12.3319 Y17.6016
G01 X12.2700 Y17.6700
G01 X12.2016 Y17.7319
G01 X12.1331 Y17.7829
G01 X12.1216 Y17.7906
G01 X12.0483 Y17.8344
G01 X11.9712 Y17.8710
G01 X11.9584 Y17.8763
G01 X11.8813 Y17.9039
G01 X11.8713 Y17.9067
G01 X11.7952 Y17.9258
G01 X11.7817 Y17.9285
G01 X11.6972 Y17.9409
G01 X11.6084 Y17.9454
G01 X10.8016 Y17.9454
G01 X10.7197 Y17.9414
G01 X10.7094 Y17.9405
G01 X10.6249 Y17.9280
G01 X10.6148 Y17.9258
G01 X10.5911 Y17.9199
G01 X7.5580 Y20.9530
G01 X7.5114 Y20.9952
G01 X7.4609 Y21.0327
G01 X7.4070 Y21.0650
G01 X7.3502 Y21.0919
G01 X7.2910 Y21.1131
G01 X7.2300 Y21.1283
G01 X7.1678 Y21.1376
G01 X7.1050 Y21.1407
G01 X3.2650 Y21.1407
G01 X3.2091 Y21.1381
G01 X3.1954 Y21.1367
G01 X3.1400 Y21.1283
G01 X3.0790 Y21.1131
G01 X3.0263 Y21.0944
G01 X3.0135 Y21.0891
G01 X2.9630 Y21.0650
G01 X2.9091 Y21.0327
G01 X2.8586 Y20.9952
G01 X2.8170 Y20.9578
G01 X2.8072 Y20.9480
G01 X2.7743 Y20.9116
G01 X2.7655 Y20.9010
G01 X2.7323 Y20.8559
G01 X2.7000 Y20.8020
G01 X2.6731 Y20.7452
G01 X2.6541 Y20.6925
G01 X2.6501 Y20.6793
G01 X2.6382 Y20.6317
G01 X2.6355 Y20.6182
G01 X2.6274 Y20.5628
G01 X2.6244 Y20.5034
G01 X2.6243 Y7.2000
G01 X2.6269 Y7.1441
G01 X2.6283 Y7.1304
G01 X2.6367 Y7.0750
G01 X2.6519 Y7.0140
G01 X2.6731 Y6.9548
G01 X2.6969 Y6.9042
G01 X2.7034 Y6.8920
G01 X2.7286 Y6.8499
G01 X2.7363 Y6.8384
G01 X2.7698 Y6.7936
G01 X2.8072 Y6.7520
G01 X4.0096 Y5.5494
G01 X4.0096 Y4.6150
G01 X4.0100 Y4.6047
G01 X4.0111 Y4.5944
G01 X4.0130 Y4.5842
G01 X4.0156 Y4.5742
G01 X4.0178 Y4.5677
G01 X4.0216 Y4.5581
G01 X4.0262 Y4.5488
G01 X4.0296 Y4.5428
G01 X4.0352 Y4.5342
G01 X4.0415 Y4.5259
G01 X4.0483 Y4.5182
G01 X4.0557 Y4.5110
G01 X4.0636 Y4.5043
G01 X4.0692 Y4.5002
G01 X4.0778 Y4.4946
G01 X4.0869 Y4.4896
G01 X4.0963 Y4.4853
G01 X4.1092 Y4.4806
G01 X4.1226 Y4.4773
G01 X4.1362 Y4.4753
G01 X4.1500 Y4.4746
G01 X5.8500 Y4.4746
G01 X5.8603 Y4.4750
G01 X5.8740 Y4.4767
G01 X5.8808 Y4.4780
G01 X5.8908 Y4.4806
G01 X5.9005 Y4.4840
G01 X5.9100 Y4.4881
G01 X5.9192 Y4.4928
G01 X5.9251 Y4.4964
G01 X5.9336 Y4.5022
G01 X5.9417 Y4.5087
G01 X5.9468 Y4.5133
G01 X5.9540 Y4.5207
G01 X5.9607 Y4.5286
G01 X5.9667 Y4.5370
G01 X5.9704 Y4.5428
G01 X5.9754 Y4.5519
G01 X5.9797 Y4.5613
G01 X5.9833 Y4.5710
G01 X5.9862 Y4.5809
G01 X5.9883 Y4.5910
G01 X5.9897 Y4.6012
G01 X5.9904 Y4.6116
G01 X5.9904 Y4.8243
G01 X8.0656 Y4.8243
G00 Z1.0000
G00 X5.7654 Y10.8070
G01 F60.00
G01 Z-0.0700
G01 F500.00
G01 X5.6947 Y10.7646
G01 X5.6683 Y10.7496
G01 X5.6412 Y10.7360
G01 X5.5703 Y10.7024
G01 X5.5426 Y10.6902
G01 X5.5285 Y10.6845
G01 X5.4260 Y10.6479
G01 X5.3970 Y10.6391
G01 X5.3823 Y10.6352
G01 X5.3062 Y10.6161
G01 X5.2766 Y10.6095
G01 X5.2467 Y10.6043
G01 X5.1540 Y10.5907
G01 X5.1390 Y10.5891
G01 X5.1087 Y10.5868
G01 X5.0303 Y10.5830
G01 X5.0000 Y10.5822
G01 X4.9697 Y10.5830
G01 X4.8913 Y10.5868
G01 X4.8610 Y10.5891
G01 X4.8460 Y10.5907
G01 X4.7533 Y10.6043
G01 X4.7234 Y10.6095
G01 X4.6938 Y10.6161
G01 X4.6177 Y10.6352
G01 X4.5884 Y10.6433
G01 X4.5740 Y10.6479
G01 X4.4857 Y10.6792
G01 X4.4574 Y10.6902
G01 X4.4297 Y10.7024
G01 X4.3830 Y10.7245
G01 X4.3830 Y7.6631
G01 X5.1133 Y6.9328
G01 X5.8652 Y6.9326
G01 X5.8954 Y6.9311
G01 X5.9106 Y6.9298
G01 X5.9406 Y6.9261
G01 X5.9705 Y6.9209
G01 X5.9854 Y6.9177
G01 X6.0148 Y6.9104
G01 X6.0438 Y6.9016
G01 X6.0723 Y6.8914
G01 X6.1003 Y6.8798
G01 X6.1141 Y6.8734
G01 X6.1412 Y6.8598
G01 X6.1676 Y6.8449
G01 X6.1932 Y6.8286
G01 X6.2180 Y6.8112
G01 X6.2419 Y6.7925
G01 X6.2649 Y6.7727
G01 X6.2868 Y6.7518
G01 X6.2974 Y6.7410
G01 X6.3178 Y6.7185
G01 X6.3370 Y6.6951
G01 X6.3551 Y6.6707
G01 X6.3719 Y6.6455
G01 X6.3875 Y6.6195
G01 X6.3948 Y6.6062
G01 X6.4066 Y6.5830
G01 X8.5505 Y6.5830
G01 X8.6138 Y6.5989
G01 X8.6434 Y6.6055
G01 X8.6733 Y6.6107
G01 X8.7453 Y6.6214
G01 X10.0870 Y7.9631
G01 X10.0870 Y8.1636
G01 X10.0430 Y8.1900
G01 X10.0173 Y8.2062
G01 X9.9925 Y8.2236
G01 X9.9174 Y8.2796
G01 X9.8940 Y8.2988
G01 X9.8245 Y8.3616
G01 X9.8025 Y8.3825
G01 X9.7919 Y8.3933
G01 X9.7289 Y8.4626
G01 X9.7091 Y8.4856
G01 X9.6904 Y8.5095
G01 X9.6348 Y8.5848
G01 X9.6179 Y8.6100
G01 X9.5696 Y8.6903
G01 X9.5546 Y8.7167
G01 X9.5410 Y8.7438
G01 X9.5074 Y8.8147
G01 X9.4952 Y8.8424
G01 X9.4842 Y8.8707
G01 X9.4578 Y8.9447
G01 X9.4483 Y8.9734
G01 X9.4441 Y8.9880
G01 X9.4176 Y9.0936
G01 X9.4145 Y9.1084
G01 X9.4093 Y9.1383
G01 X9.3978 Y9.2159
G01 X9.3941 Y9.2460
G01 X9.3918 Y9.2763
G01 X9.3880 Y9.3547
G01 X9.3872 Y9.3850
G01 X9.3874 Y9.4002
G01 X9.3918 Y9.4937
G01 X9.3941 Y9.5240
G01 X9.3978 Y9.5541
G01 X9.4093 Y9.6317
G01 X9.4145 Y9.6616
G01 X9.4176 Y9.6764
G01 X9.4402 Y9.7673
G01 X9.4483 Y9.7966
G01 X9.4578 Y9.8253
G01 X9.4895 Y9.9135
G01 X9.5011 Y9.9415
G01 X9.5074 Y9.9553
G01 X9.5410 Y10.0262
G01 X9.5546 Y10.0533
G01 X9.5696 Y10.0797
G01 X9.6179 Y10.1600
G01 X9.6348 Y10.1852
G01 X9.6436 Y10.1975
G01 X9.6996 Y10.2726
G01 X9.7188 Y10.2960
G01 X9.7816 Y10.3655
G01 X9.8025 Y10.3875
G01 X9.8245 Y10.4084
G01 X9.8826 Y10.4611
G01 X9.8940 Y10.4712
G01 X9.9174 Y10.4904
G01 X9.9925 Y10.5464
G01 X10.0173 Y10.5638
G01 X10.0430 Y10.5800
G01 X10.1234 Y10.6280
G01 X10.1501 Y10.6423
G01 X10.1765 Y10.6550
G01 X10.1501 Y10.6677
G01 X10.1234 Y10.6820
G01 X10.0300 Y10.7379
G01 X10.0048 Y10.7548
G01 X9.9341 Y10.8070
G01 X5.7654 Y10.8070
G00 Z1.0000
G00 X5.6909 Y11.0457
G01 F60.00
G01 Z-0.0700
G01 F500.00
G01 X5.6627 Y11.0249
G01 X5.6473 Y11.0146
G01 X5.5720 Y10.9693
G01 X5.5476 Y10.9559
G01 X5.4682 Y10.9182
G01 X5.4512 Y10.9107
G01 X5.4339 Y10.9040
G01 X5.3599 Y10.8775
G01 X5.3333 Y10.8691
G01 X5.2482 Y10.8477
G01 X5.2300 Y10.8436
G01 X5.2117 Y10.8404
G01 X5.1340 Y10.8289
G01 X5.1156 Y10.8266
G01 X5.0970 Y10.8252
G01 X5.0186 Y10.8214
G01 X5.0000 Y10.8209
G01 X4.9814 Y10.8214
G01 X4.9030 Y10.8252
G01 X4.8844 Y10.8266
G01 X4.8660 Y10.8289
G01 X4.7883 Y10.8404
G01 X4.7700 Y10.8436
G01 X4.7518 Y10.8477
G01 X4.6757 Y10.8667
G01 X4.6577 Y10.8717
G01 X4.6401 Y10.8775
G01 X4.5661 Y10.9040
G01 X4.5488 Y10.9107
G01 X4.5318 Y10.9182
G01 X4.4524 Y10.9559
G01 X4.4280 Y10.9693
G01 X4.3607 Y11.0097
G01 X4.3449 Y11.0196
G01 X4.3297 Y11.0303
G01 X4.2667 Y11.0771
G01 X4.2449 Y11.0945
G01 X4.1797 Y11.1534
G01 X4.1598 Y11.1729
G01 X4.1443 Y11.1898
G01 X4.1443 Y7.5642
G01 X5.0145 Y6.6941
G01 X5.8593 Y6.6940
G01 X5.8779 Y6.6931
G01 X5.9056 Y6.6900
G01 X5.9240 Y6.6868
G01 X5.9511 Y6.6803
G01 X5.9689 Y6.6749
G01 X5.9864 Y6.6687
G01 X6.0121 Y6.6577
G01 X6.0368 Y6.6448
G01 X6.0606 Y6.6302
G01 X6.0832 Y6.6138
G01 X6.1046 Y6.5959
G01 X6.1245 Y6.5764
G01 X6.1430 Y6.5555
G01 X6.1599 Y6.5333
G01 X6.1751 Y6.5099
G01 X6.1886 Y6.4854
G01 X6.2002 Y6.4601
G01 X6.2099 Y6.4339
G01 X6.2177 Y6.4071
G01 X6.2235 Y6.3798
G01 X6.2262 Y6.3614
G01 X6.2279 Y6.3443
G01 X8.5813 Y6.3443
G01 X8.5957 Y6.3483
G01 X8.6718 Y6.3673
G01 X8.6991 Y6.3731
G01 X8.7952 Y6.3874
G01 X8.8137 Y6.3892
G01 X8.8527 Y6.3912
G01 X10.3257 Y7.8642
G01 X10.3257 Y8.3085
G01 X10.2658 Y8.3368
G01 X10.2492 Y8.3451
G01 X10.2330 Y8.3543
G01 X10.1657 Y8.3947
G01 X10.1423 Y8.4099
G01 X10.0717 Y8.4621
G01 X10.0570 Y8.4736
G01 X10.0429 Y8.4857
G01 X9.9847 Y8.5384
G01 X9.9713 Y8.5513
G01 X9.9584 Y8.5647
G01 X9.9057 Y8.6229
G01 X9.8936 Y8.6370
G01 X9.8821 Y8.6517
G01 X9.8353 Y8.7147
G01 X9.8246 Y8.7299
G01 X9.8147 Y8.7457
G01 X9.7743 Y8.8130
G01 X9.7651 Y8.8292
G01 X9.7568 Y8.8458
G01 X9.7232 Y8.9168
G01 X9.7157 Y8.9338
G01 X9.7090 Y8.9511
G01 X9.6825 Y9.0251
G01 X9.6741 Y9.0517
G01 X9.6505 Y9.1459
G01 X9.6454 Y9.1733
G01 X9.6339 Y9.2510
G01 X9.6316 Y9.2694
G01 X9.6302 Y9.2880
G01 X9.6264 Y9.3664
G01 X9.6259 Y9.3850
G01 X9.6264 Y9.4036
G01 X9.6302 Y9.4820
G01 X9.6316 Y9.5006
G01 X9.6339 Y9.5190
G01 X9.6454 Y9.5967
G01 X9.6486 Y9.6150
G01 X9.6527 Y9.6332
G01 X9.6717 Y9.7093
G01 X9.6767 Y9.7273
G01 X9.6825 Y9.7449
G01 X9.7090 Y9.8189
G01 X9.7157 Y9.8362
G01 X9.7232 Y9.8532
G01 X9.7568 Y9.9242
G01 X9.7651 Y9.9408
G01 X9.7743 Y9.9570
G01 X9.8147 Y10.0243
G01 X9.8299 Y10.0477
G01 X9.8821 Y10.1183
G01 X9.8936 Y10.1330
G01 X9.9057 Y10.1471
G01 X9.9584 Y10.2053
G01 X9.9713 Y10.2187
G01 X9.9847 Y10.2316
G01 X10.0429 Y10.2843
G01 X10.0570 Y10.2964
G01 X10.0717 Y10.3079
G01 X10.1347 Y10.3547
G01 X10.1577 Y10.3704
G01 X10.2410 Y10.4204
G01 X10.2658 Y10.4332
G01 X10.3368 Y10.4668
G01 X10.3624 Y10.4778
G01 X10.4451 Y10.5075
G01 X10.4627 Y10.5133
G01 X10.4807 Y10.5183
G01 X10.5568 Y10.5373
G01 X10.5750 Y10.5414
G01 X10.5933 Y10.5446
G01 X10.6710 Y10.5561
G01 X10.6987 Y10.5592
G01 X10.7957 Y10.5640
G01 X11.6143 Y10.5640
G01 X11.7113 Y10.5592
G01 X11.7298 Y10.5574
G01 X11.7699 Y10.5515
G01 X11.5755 Y10.7459
G01 X10.7957 Y10.7460
G01 X10.7080 Y10.7502
G01 X10.6894 Y10.7516
G01 X10.6710 Y10.7539
G01 X10.5933 Y10.7654
G01 X10.5750 Y10.7686
G01 X10.5568 Y10.7727
G01 X10.4807 Y10.7917
G01 X10.4627 Y10.7967
G01 X10.4451 Y10.8025
G01 X10.3711 Y10.8290
G01 X10.3538 Y10.8357
G01 X10.3368 Y10.8432
G01 X10.2574 Y10.8809
G01 X10.2330 Y10.8943
G01 X10.1657 Y10.9347
G01 X10.1423 Y10.9499
G01 X10.0643 Y11.0077
G01 X10.0499 Y11.0195
G01 X10.0209 Y11.0457
G01 X5.6909 Y11.0457
G00 Z1.0000
G00 X5.7501 Y12.5657
G01 F60.00
G01 Z-0.0700
G01 F500.00
G01 X5.7312 Y12.5912
G01 X5.7247 Y12.5992
G01 X5.6674 Y12.6625
G01 X5.6600 Y12.6697
G01 X5.5992 Y12.7247
G01 X5.5912 Y12.7312
G01 X5.5225 Y12.7819
G01 X5.4463 Y12.8277
G01 X5.4371 Y12.8325
G01 X5.3599 Y12.8688
G01 X5.2730 Y12.8999
G01 X5.1835 Y12.9223
G01 X5.0956 Y12.9355
G01 X5.0853 Y12.9364
G01 X5.0000 Y12.9404
G01 X4.9078 Y12.9359
G01 X4.8165 Y12.9223
G01 X4.7270 Y12.8999
G01 X4.6401 Y12.8688
G01 X4.5567 Y12.8294
G01 X4.4775 Y12.7819
G01 X4.4061 Y12.7291
G01 X4.3982 Y12.7224
G01 X4.3350 Y12.6650
G01 X4.2731 Y12.5966
G01 X4.2181 Y12.5225
G01 X4.1706 Y12.4433
G01 X4.1312 Y12.3599
G01 X4.1001 Y12.2730
G01 X4.0777 Y12.1835
G01 X4.0641 Y12.0922
G01 X4.0596 Y12.0000
G01 X4.0641 Y11.9078
G01 X4.0777 Y11.8165
G01 X4.1001 Y11.7270
G01 X4.1312 Y11.6401
G01 X4.1706 Y11.5567
G01 X4.2181 Y11.4775
G01 X4.2709 Y11.4061
G01 X4.2776 Y11.3982
G01 X4.3350 Y11.3350
G01 X4.4034 Y11.2731
G01 X4.4775 Y11.2181
G01 X4.5567 Y11.1706
G01 X4.6401 Y11.1312
G01 X4.7270 Y11.1001
G01 X4.8165 Y11.0777
G01 X4.9010 Y11.0650
G01 X4.9147 Y11.0636
G01 X5.0000 Y11.0596
G01 X5.0922 Y11.0641
G01 X5.1835 Y11.0777
G01 X5.2663 Y11.0983
G01 X5.2763 Y11.1011
G01 X5.3599 Y11.1312
G01 X5.4433 Y11.1706
G01 X5.5225 Y11.2181
G01 X5.5939 Y11.2709
G01 X5.6093 Y11.2843
G01 X10.1178 Y11.2843
G01 X10.1353 Y11.2650
G01 X10.1425 Y11.2576
G01 X10.2032 Y11.2026
G01 X10.2111 Y11.1959
G01 X10.2825 Y11.1431
G01 X10.3587 Y11.0973
G01 X10.3679 Y11.0925
G01 X10.4388 Y11.0590
G01 X10.4516 Y11.0537
G01 X10.5320 Y11.0251
G01 X10.6215 Y11.0027
G01 X10.7128 Y10.9891
G01 X10.8016 Y10.9846
G01 X11.6050 Y10.9846
G01 X11.6713 Y10.9877
G01 X17.8970 Y4.7620
G01 X17.9384 Y4.7243
G01 X17.9490 Y4.7155
G01 X17.9941 Y4.6823
G01 X18.0480 Y4.6500
G01 X18.1048 Y4.6231
G01 X18.1607 Y4.6030
G01 X18.1707 Y4.6001
G01 X18.2250 Y4.5867
G01 X18.2838 Y4.5778
G01 X18.2941 Y4.5769
G01 X18.3466 Y4.5744
G01 X18.3928 Y4.5743
G01 X18.4103 Y4.5550
G01 X18.4175 Y4.5476
G01 X18.4808 Y4.4903
G01 X18.4888 Y4.4838
G01 X18.5547 Y4.4350
G01 X18.5634 Y4.4294
G01 X18.6367 Y4.3856
G01 X18.7138 Y4.3490
G01 X18.7233 Y4.3449
G01 X18.8070 Y4.3151
G01 X18.8965 Y4.2927
G01 X18.9878 Y4.2791
G01 X19.0731 Y4.2748
G01 X19.0834 Y4.2746
G01 X19.1722 Y4.2791
G01 X19.2567 Y4.2915
G01 X19.2702 Y4.2942
G01 X19.3530 Y4.3151
G01 X19.4334 Y4.3437
G01 X19.4462 Y4.3490
G01 X19.5233 Y4.3856
G01 X19.5966 Y4.4294
G01 X19.6081 Y4.4371
G01 X19.6766 Y4.4881
G01 X19.7400 Y4.5453
G01 X19.7497 Y4.5550
G01 X19.8069 Y4.6184
G01 X19.8579 Y4.6869
G01 X19.8656 Y4.6984
G01 X19.9077 Y4.7687
G01 X19.9125 Y4.7779
G01 X19.9460 Y4.8488
G01 X19.9513 Y4.8616
G01 X19.9799 Y4.9420
G01 X20.0023 Y5.0315
G01 X20.0159 Y5.1228
G01 X20.0202 Y5.2081
G01 X20.0202 Y5.2219
G01 X20.0164 Y5.3003
G01 X20.0150 Y5.3140
G01 X20.0023 Y5.3985
G01 X19.9799 Y5.4880
G01 X19.9488 Y5.5749
G01 X19.9125 Y5.6521
G01 X19.9060 Y5.6643
G01 X19.8656 Y5.7316
G01 X19.8579 Y5.7431
G01 X19.8069 Y5.8116
G01 X19.7450 Y5.8800
G01 X19.6766 Y5.9419
G01 X19.6025 Y5.9969
G01 X19.5233 Y6.0444
G01 X19.4462 Y6.0810
G01 X19.4334 Y6.0863
G01 X19.3595 Y6.1127
G01 X19.3463 Y6.1167
G01 X19.2635 Y6.1373
G01 X19.1790 Y6.1500
G01 X19.1687 Y6.1512
G01 X19.0800 Y6.1554
G01 X18.9878 Y6.1509
G01 X18.8965 Y6.1373
G01 X18.8103 Y6.1159
G01 X18.8005 Y6.1127
G01 X18.7201 Y6.0838
G01 X18.6398 Y6.0459
G01 X18.6307 Y6.0410
G01 X18.5604 Y5.9988
G01 X18.5519 Y5.9929
G01 X18.5095 Y5.9615
G01 X12.5454 Y11.9256
G01 X12.5414 Y12.0103
G01 X12.5400 Y12.0240
G01 X12.5273 Y12.1085
G01 X12.5067 Y12.1913
G01 X12.5027 Y12.2045
G01 X12.4738 Y12.2849
G01 X12.4375 Y12.3621
G01 X12.4310 Y12.3743
G01 X12.3869 Y12.4475
G01 X12.3362 Y12.5162
G01 X12.3274 Y12.5268
G01 X12.2700 Y12.5900
G01 X12.2068 Y12.6474
G01 X12.1962 Y12.6562
G01 X12.1275 Y12.7069
G01 X12.0513 Y12.7527
G01 X12.0421 Y12.7575
G01 X11.9649 Y12.7938
G01 X11.8780 Y12.8249
G01 X11.7885 Y12.8473
G01 X11.6972 Y12.8609
G01 X11.6050 Y12.8654
G01 X10.8016 Y12.8654
G01 X10.7128 Y12.8609
G01 X10.6215 Y12.8473
G01 X10.5320 Y12.8249
G01 X10.4516 Y12.7963
G01 X10.4420 Y12.7925
G01 X10.3617 Y12.7544
G01 X10.2884 Y12.7106
G01 X10.2797 Y12.7050
G01 X10.2138 Y12.6562
G01 X10.2058 Y12.6497
G01 X10.1425 Y12.5924
G01 X10.1353 Y12.5850
G01 X10.1178 Y12.5657
G01 X5.7501 Y12.5657
G00 Z1.0000
G00 X5.9050 Y13.0912
G01 F60.00
G01 Z-0.0700
G01 F500.00
G01 X5.9224 Y13.0761
G01 X5.9589 Y13.0430
G01 X9.9341 Y13.0430
G01 X10.0048 Y13.0952
G01 X10.0300 Y13.1121
G01 X10.1234 Y13.1680
G01 X10.1501 Y13.1823
G01 X10.1765 Y13.1950
G01 X10.1501 Y13.2077
G01 X10.1234 Y13.2220
G01 X10.0300 Y13.2779
G01 X10.0048 Y13.2948
G01 X9.9341 Y13.3470
G01 X6.3069 Y13.3470
G01 X6.2870 Y13.3199
G01 X6.2678 Y13.2965
G01 X6.2474 Y13.2740
G01 X6.2260 Y13.2526
G01 X6.2035 Y13.2322
G01 X6.1801 Y13.2130
G01 X6.1557 Y13.1949
G01 X6.1305 Y13.1781
G01 X6.1045 Y13.1625
G01 X6.0778 Y13.1482
G01 X6.0503 Y13.1352
G01 X6.0223 Y13.1236
G01 X5.9938 Y13.1134
G01 X5.9648 Y13.1046
G01 X5.9354 Y13.0973
G01 X5.9050 Y13.0912
G00 Z1.0000
G00 X4.1443 Y12.8102
G01 F60.00
G01 Z-0.0700
G01 F500.00
G01 X4.1598 Y12.8271
G01 X4.1729 Y12.8402
G01 X4.2449 Y12.9055
G01 X4.2667 Y12.9229
G01 X4.3373 Y12.9751
G01 X4.3607 Y12.9903
G01 X4.4280 Y13.0307
G01 X4.4442 Y13.0399
G01 X4.4608 Y13.0482
G01 X4.5402 Y13.0857
G01 X4.5661 Y13.0960
G01 X4.6401 Y13.1225
G01 X4.6577 Y13.1283
G01 X4.6757 Y13.1333
G01 X4.7518 Y13.1523
G01 X4.7700 Y13.1564
G01 X4.7883 Y13.1596
G01 X4.8660 Y13.1711
G01 X4.8844 Y13.1734
G01 X4.9030 Y13.1748
G01 X4.9814 Y13.1786
G01 X5.0000 Y13.1791
G01 X5.0186 Y13.1786
G01 X5.0970 Y13.1748
G01 X5.1156 Y13.1734
G01 X5.1340 Y13.1711
G01 X5.2117 Y13.1596
G01 X5.2300 Y13.1564
G01 X5.2482 Y13.1523
G01 X5.3243 Y13.1333
G01 X5.3423 Y13.1283
G01 X5.3599 Y13.1225
G01 X5.4339 Y13.0960
G01 X5.4512 Y13.0893
G01 X5.4682 Y13.0818
G01 X5.5392 Y13.0482
G01 X5.5558 Y13.0399
G01 X5.5720 Y13.0307
G01 X5.6393 Y12.9903
G01 X5.6627 Y12.9751
G01 X5.7333 Y12.9229
G01 X5.7551 Y12.9055
G01 X5.8271 Y12.8402
G01 X5.8402 Y12.8271
G01 X5.8610 Y12.8043
G01 X10.0209 Y12.8043
G01 X10.0499 Y12.8305
G01 X10.0643 Y12.8423
G01 X10.1423 Y12.9001
G01 X10.1657 Y12.9153
G01 X10.2330 Y12.9557
G01 X10.2574 Y12.9691
G01 X10.3368 Y13.0068
G01 X10.3538 Y13.0143
G01 X10.3711 Y13.0210
G01 X10.4451 Y13.0475
G01 X10.4627 Y13.0533
G01 X10.4807 Y13.0583
G01 X10.5568 Y13.0773
G01 X10.5750 Y13.0814
G01 X10.5933 Y13.0846
G01 X10.6710 Y13.0961
G01 X10.6894 Y13.0984
G01 X10.7080 Y13.0998
G01 X10.7957 Y13.1040
G01 X11.6143 Y13.1040
G01 X11.7113 Y13.0992
G01 X11.7390 Y13.0961
G01 X11.8167 Y13.0846
G01 X11.8350 Y13.0814
G01 X11.8532 Y13.0773
G01 X11.9293 Y13.0583
G01 X11.9473 Y13.0533
G01 X11.9649 Y13.0475
G01 X12.0389 Y13.0210
G01 X12.0562 Y13.0143
G01 X12.0732 Y13.0068
G01 X12.1442 Y12.9732
G01 X12.1690 Y12.9604
G01 X12.2443 Y12.9153
G01 X12.2601 Y12.9054
G01 X12.2753 Y12.8947
G01 X12.3383 Y12.8479
G01 X12.3601 Y12.8305
G01 X12.4321 Y12.7652
G01 X12.4516 Y12.7453
G01 X12.5043 Y12.6871
G01 X12.5223 Y12.6657
G01 X12.5747 Y12.5953
G01 X12.5854 Y12.5801
G01 X12.5953 Y12.5643
G01 X12.6207 Y12.5221
G01 X12.6207 Y13.8679
G01 X12.5953 Y13.8257
G01 X12.5854 Y13.8099
G01 X12.5747 Y13.7947
G01 X12.5223 Y13.7243
G01 X12.5043 Y13.7029
G01 X12.4516 Y13.6447
G01 X12.4387 Y13.6313
G01 X12.4253 Y13.6184
G01 X12.3671 Y13.5657
G01 X12.3530 Y13.5536
G01 X12.3383 Y13.5421
G01 X12.2753 Y13.4953
G01 X12.2601 Y13.4846
G01 X12.2443 Y13.4747
G01 X12.1770 Y13.4343
G01 X12.1608 Y13.4251
G01 X12.1442 Y13.4168
G01 X12.0732 Y13.3832
G01 X12.0562 Y13.3757
G01 X12.0389 Y13.3690
G01 X11.9649 Y13.3425
G01 X11.9383 Y13.3341
G01 X11.8441 Y13.3105
G01 X11.8167 Y13.3054
G01 X11.7390 Y13.2939
G01 X11.7206 Y13.2916
G01 X11.7020 Y13.2902
G01 X11.6236 Y13.2864
G01 X11.6050 Y13.2859
G01 X10.7957 Y13.2860
G01 X10.7080 Y13.2902
G01 X10.6894 Y13.2916
G01 X10.6710 Y13.2939
G01 X10.5933 Y13.3054
G01 X10.5750 Y13.3086
G01 X10.5568 Y13.3127
G01 X10.4807 Y13.3317
G01 X10.4627 Y13.3367
G01 X10.4451 Y13.3425
G01 X10.3711 Y13.3690
G01 X10.3538 Y13.3757
G01 X10.3368 Y13.3832
G01 X10.2574 Y13.4209
G01 X10.2330 Y13.4343
G01 X10.1657 Y13.4747
G01 X10.1423 Y13.4899
G01 X10.0643 Y13.5477
G01 X10.0499 Y13.5595
G01 X10.0209 Y13.5857
G01 X6.1614 Y13.5857
G01 X6.1537 Y13.5636
G01 X6.1427 Y13.5379
G01 X6.1298 Y13.5132
G01 X6.1152 Y13.4894
G01 X6.0988 Y13.4668
G01 X6.0809 Y13.4454
G01 X6.0614 Y13.4255
G01 X6.0405 Y13.4070
G01 X6.0183 Y13.3901
G01 X5.9949 Y13.3749
G01 X5.9787 Y13.3657
G01 X5.9536 Y13.3534
G01 X5.9277 Y13.3431
G01 X5.9011 Y13.3347
G01 X5.8740 Y13.3282
G01 X5.8464 Y13.3238
G01 X5.8186 Y13.3214
G01 X5.8000 Y13.3209
G01 X4.2000 Y13.3209
G01 X4.1721 Y13.3219
G01 X4.1443 Y13.3250
G01 X4.1443 Y12.8102
G00 Z1.0000
G00 X4.5096 Y17.9120
G01 F60.00
G01 Z-0.0700
G01 F500.00
G01 X4.5005 Y17.9010
G01 X4.4713 Y17.8616
G01 X4.4636 Y17.8501
G01 X4.4350 Y17.8020
G01 X4.4081 Y17.7452
G01 X4.3869 Y17.6860
G01 X4.3732 Y17.6317
G01 X4.3705 Y17.6182
G01 X4.3633 Y17.5696
G01 X4.3619 Y17.5559
G01 X4.3593 Y17.5000
G01 X4.3593 Y15.4404
G01 X4.1931 Y15.4402
G01 X4.1794 Y15.4389
G01 X4.1659 Y15.4362
G01 X4.1560 Y15.4333
G01 X4.1431 Y15.4284
G01 X4.1338 Y15.4238
G01 X4.1249 Y15.4186
G01 X4.1164 Y15.4128
G01 X4.1109 Y15.4085
G01 X4.1032 Y15.4017
G01 X4.0960 Y15.3943
G01 X4.0915 Y15.3891
G01 X4.0852 Y15.3808
G01 X4.0796 Y15.3722
G01 X4.0762 Y15.3662
G01 X4.0716 Y15.3569
G01 X4.0678 Y15.3473
G01 X4.0647 Y15.3374
G01 X4.0623 Y15.3274
G01 X4.0607 Y15.3172
G01 X4.0600 Y15.3103
G01 X4.0596 Y15.3000
G01 X4.0598 Y13.6931
G01 X4.0607 Y13.6828
G01 X4.0623 Y13.6726
G01 X4.0638 Y13.6659
G01 X4.0667 Y13.6560
G01 X4.0703 Y13.6463
G01 X4.0746 Y13.6369
G01 X4.0796 Y13.6278
G01 X4.0833 Y13.6220
G01 X4.0893 Y13.6136
G01 X4.0937 Y13.6083
G01 X4.0983 Y13.6032
G01 X4.1057 Y13.5960
G01 X4.1136 Y13.5893
G01 X4.1220 Y13.5833
G01 X4.1278 Y13.5796
G01 X4.1369 Y13.5746
G01 X4.1431 Y13.5716
G01 X4.1527 Y13.5678
G01 X4.1626 Y13.5647
G01 X4.1692 Y13.5630
G01 X4.1760 Y13.5617
G01 X4.1862 Y13.5603
G01 X4.2000 Y13.5596
G01 X5.8000 Y13.5596
G01 X5.8103 Y13.5600
G01 X5.8206 Y13.5611
G01 X5.8274 Y13.5623
G01 X5.8374 Y13.5647
G01 X5.8440 Y13.5667
G01 X5.8537 Y13.5703
G01 X5.8631 Y13.5746
G01 X5.8722 Y13.5796
G01 X5.8780 Y13.5833
G01 X5.8864 Y13.5893
G01 X5.8943 Y13.5960
G01 X5.8993 Y13.6007
G01 X5.9063 Y13.6083
G01 X5.9107 Y13.6136
G01 X5.9167 Y13.6220
G01 X5.9204 Y13.6278
G01 X5.9238 Y13.6338
G01 X5.9284 Y13.6431
G01 X5.9333 Y13.6560
G01 X5.9362 Y13.6659
G01 X5.9383 Y13.6760
G01 X5.9400 Y13.6897
G01 X5.9404 Y13.7000
G01 X5.9404 Y13.8243
G01 X10.1178 Y13.8243
G01 X10.1353 Y13.8050
G01 X10.1425 Y13.7976
G01 X10.2032 Y13.7426
G01 X10.2111 Y13.7359
G01 X10.2825 Y13.6831
G01 X10.3587 Y13.6373
G01 X10.3679 Y13.6325
G01 X10.4388 Y13.5990
G01 X10.4516 Y13.5937
G01 X10.5320 Y13.5651
G01 X10.6215 Y13.5427
G01 X10.7128 Y13.5291
G01 X10.8016 Y13.5246
G01 X11.6050 Y13.5246
G01 X11.6903 Y13.5286
G01 X11.7040 Y13.5300
G01 X11.7885 Y13.5427
G01 X11.8713 Y13.5633
G01 X11.8845 Y13.5673
G01 X11.9649 Y13.5962
G01 X12.0421 Y13.6325
G01 X12.0543 Y13.6390
G01 X12.1275 Y13.6831
G01 X12.1962 Y13.7338
G01 X12.2068 Y13.7426
G01 X12.2700 Y13.8000
G01 X12.3274 Y13.8632
G01 X12.3362 Y13.8738
G01 X12.3869 Y13.9425
G01 X12.4310 Y14.0157
G01 X12.4359 Y14.0248
G01 X12.4710 Y14.0988
G01 X12.4763 Y14.1116
G01 X12.5049 Y14.1920
G01 X12.5258 Y14.2748
G01 X12.5285 Y14.2883
G01 X12.5409 Y14.3728
G01 X12.5454 Y14.4650
G01 X12.5409 Y14.5572
G01 X12.5285 Y14.6417
G01 X12.5258 Y14.6552
G01 X12.5067 Y14.7313
G01 X12.5027 Y14.7445
G01 X12.4738 Y14.8249
G01 X12.4375 Y14.9021
G01 X12.4310 Y14.9143
G01 X12.3869 Y14.9875
G01 X12.3319 Y15.0616
G01 X12.2700 Y15.1300
G01 X12.2068 Y15.1874
G01 X12.1962 Y15.1962
G01 X12.1331 Y15.2429
G01 X12.1216 Y15.2506
G01 X12.0483 Y15.2944
G01 X11.9712 Y15.3310
G01 X11.9584 Y15.3363
G01 X11.8780 Y15.3649
G01 X11.7952 Y15.3858
G01 X11.7851 Y15.3880
G01 X11.6972 Y15.4009
G01 X11.6050 Y15.4054
G01 X10.8016 Y15.4054
G01 X10.7128 Y15.4009
G01 X10.6249 Y15.3880
G01 X10.6148 Y15.3858
G01 X10.5387 Y15.3667
G01 X10.5255 Y15.3627
G01 X10.4451 Y15.3338
G01 X10.3679 Y15.2975
G01 X10.3587 Y15.2927
G01 X10.2825 Y15.2469
G01 X10.2111 Y15.1941
G01 X10.2032 Y15.1874
G01 X10.1425 Y15.1324
G01 X10.1353 Y15.1250
G01 X10.1178 Y15.1057
G01 X5.9404 Y15.1057
G01 X5.9404 Y15.3000
G01 X5.9400 Y15.3103
G01 X5.9393 Y15.3172
G01 X5.9377 Y15.3274
G01 X5.9353 Y15.3374
G01 X5.9322 Y15.3473
G01 X5.9284 Y15.3569
G01 X5.9238 Y15.3662
G01 X5.9186 Y15.3751
G01 X5.9128 Y15.3836
G01 X5.9040 Y15.3943
G01 X5.8943 Y15.4040
G01 X5.8864 Y15.4107
G01 X5.8780 Y15.4167
G01 X5.8662 Y15.4238
G01 X5.8569 Y15.4284
G01 X5.8440 Y15.4333
G01 X5.8341 Y15.4362
G01 X5.8240 Y15.4383
G01 X5.8138 Y15.4397
G01 X5.8000 Y15.4404
G01 X5.6407 Y15.4404
G01 X5.6407 Y17.0096
G01 X6.3500 Y17.0096
G01 X6.3638 Y17.0103
G01 X6.3706 Y17.0111
G01 X6.3808 Y17.0130
G01 X6.3908 Y17.0156
G01 X6.4005 Y17.0190
G01 X6.4069 Y17.0216
G01 X6.4162 Y17.0262
G01 X6.4222 Y17.0296
G01 X6.4308 Y17.0352
G01 X6.4391 Y17.0415
G01 X6.4468 Y17.0483
G01 X6.4540 Y17.0557
G01 X6.4585 Y17.0609
G01 X6.4648 Y17.0692
G01 X6.4704 Y17.0778
G01 X6.4754 Y17.0869
G01 X6.4784 Y17.0931
G01 X6.4833 Y17.1060
G01 X6.4870 Y17.1192
G01 X6.4883 Y17.1260
G01 X6.4897 Y17.1362
G01 X6.4904 Y17.1500
G01 X6.4904 Y18.8500
G01 X6.4902 Y18.8569
G01 X6.4893 Y18.8672
G01 X6.4883 Y18.8740
G01 X6.4862 Y18.8841
G01 X6.4822 Y18.8973
G01 X6.4797 Y18.9037
G01 X6.4754 Y18.9131
G01 X6.4704 Y18.9222
G01 X6.4667 Y18.9280
G01 X6.4607 Y18.9364
G01 X6.4540 Y18.9443
G01 X6.4468 Y18.9517
G01 X6.4391 Y18.9585
G01 X6.4308 Y18.9648
G01 X6.4251 Y18.9686
G01 X6.4162 Y18.9738
G01 X6.4069 Y18.9784
G01 X6.3973 Y18.9822
G01 X6.3908 Y18.9844
G01 X6.3841 Y18.9862
G01 X6.3740 Y18.9883
G01 X6.3638 Y18.9897
G01 X6.3534 Y18.9904
G01 X4.6500 Y18.9904
G01 X4.6431 Y18.9902
G01 X4.6328 Y18.9893
G01 X4.6192 Y18.9870
G01 X4.6126 Y18.9853
G01 X4.6027 Y18.9822
G01 X4.5931 Y18.9784
G01 X4.5869 Y18.9754
G01 X4.5808 Y18.9722
G01 X4.5720 Y18.9667
G01 X4.5636 Y18.9607
G01 X4.5557 Y18.9540
G01 X4.5483 Y18.9468
G01 X4.5437 Y18.9417
G01 X4.5372 Y18.9336
G01 X4.5333 Y18.9280
G01 X4.5278 Y18.9192
G01 X4.5246 Y18.9131
G01 X4.5216 Y18.9069
G01 X4.5178 Y18.8973
G01 X4.5147 Y18.8874
G01 X4.5123 Y18.8774
G01 X4.5107 Y18.8672
G01 X4.5100 Y18.8603
G01 X4.5096 Y18.8500
G01 X4.5096 Y17.9120
G00 Z1.0000
G00 X2.6180 Y21.4113
G01 F60.00
G01 Z-0.0700
G01 F500.00
G01 X2.6314 Y21.4210
G01 X2.6566 Y21.4379
G01 X2.7116 Y21.4711
G01 X2.7380 Y21.4860
G01 X2.7651 Y21.4996
G01 X2.8232 Y21.5269
G01 X2.8512 Y21.5385
G01 X2.8654 Y21.5438
G01 X2.9117 Y21.5604
G01 X2.9405 Y21.5699
G01 X2.9697 Y21.5780
G01 X3.0321 Y21.5934
G01 X3.0618 Y21.5993
G01 X3.1253 Y21.6089
G01 X3.1554 Y21.6126
G01 X3.1857 Y21.6149
G01 X3.2347 Y21.6173
G01 X3.2650 Y21.6180
G01 X6.8009 Y21.6180
G01 X5.5369 Y22.8820
G01 X3.4510 Y22.8820
G01 X2.6180 Y22.0490
G01 X2.6180 Y21.4113
G00 Z1.0000
G00 X10.4797 Y20.4264
G01 F60.00
G01 Z-0.0700
G01 F500.00
G01 X6.4505 Y24.4554
G01 X6.4064 Y24.4952
G01 X6.3616 Y24.5287
G01 X6.3501 Y24.5364
G01 X6.3020 Y24.5650
G01 X6.2515 Y24.5891
G01 X6.2387 Y24.5944
G01 X6.1860 Y24.6131
G01 X6.1317 Y24.6268
G01 X6.1182 Y24.6295
G01 X6.0628 Y24.6376
G01 X6.0000 Y24.6407
G01 X2.9879 Y24.6407
G01 X2.9251 Y24.6376
G01 X2.8630 Y24.6283
G01 X2.8020 Y24.6131
G01 X2.7492 Y24.5944
G01 X2.7365 Y24.5891
G01 X2.6859 Y24.5650
G01 X2.6320 Y24.5327
G01 X2.5815 Y24.4952
G01 X2.5374 Y24.4554
G01 X1.0470 Y22.9651
G01 X1.0048 Y22.9185
G01 X0.9713 Y22.8736
G01 X0.9636 Y22.8622
G01 X0.9350 Y22.8141
G01 X0.9109 Y22.7635
G01 X0.9056 Y22.7508
G01 X0.8891 Y22.7046
G01 X0.8851 Y22.6914
G01 X0.8732 Y22.6438
G01 X0.8705 Y22.6303
G01 X0.8624 Y22.5749
G01 X0.8593 Y22.5121
G01 X0.8593 Y5.4325
G01 X0.8624 Y5.3697
G01 X0.8705 Y5.3143
G01 X0.8732 Y5.3008
G01 X0.8851 Y5.2532
G01 X0.8891 Y5.2400
G01 X0.9081 Y5.1873
G01 X0.9350 Y5.1305
G01 X0.9636 Y5.0824
G01 X0.9713 Y5.0709
G01 X1.0048 Y5.0261
G01 X1.0446 Y4.9820
G01 X3.9795 Y2.0470
G01 X4.0209 Y2.0093
G01 X4.0288 Y2.0026
G01 X4.0766 Y1.9673
G01 X4.1305 Y1.9350
G01 X4.1873 Y1.9081
G01 X4.2400 Y1.8891
G01 X4.2532 Y1.8851
G01 X4.3008 Y1.8732
G01 X4.3143 Y1.8705
G01 X4.3697 Y1.8624
G01 X4.4325 Y1.8593
G01 X31.5069 Y1.8595
G01 X31.5628 Y1.8624
G01 X31.6250 Y1.8717
G01 X31.6860 Y1.8869
G01 X31.7387 Y1.9056
G01 X31.7515 Y1.9109
G01 X31.7958 Y1.9319
G01 X31.8080 Y1.9384
G01 X31.8559 Y1.9673
G01 X31.9064 Y2.0048
G01 X31.9530 Y2.0470
G01 X32.9530 Y3.0470
G01 X32.9907 Y3.0884
G01 X32.9974 Y3.0963
G01 X33.0327 Y3.1441
G01 X33.0650 Y3.1980
G01 X33.0919 Y3.2548
G01 X33.1109 Y3.3075
G01 X33.1149 Y3.3207
G01 X33.1268 Y3.3683
G01 X33.1295 Y3.3818
G01 X33.1376 Y3.4372
G01 X33.1406 Y3.4966
G01 X33.1407 Y6.5000
G01 X33.1381 Y6.5559
G01 X33.1367 Y6.5696
G01 X33.1283 Y6.6250
G01 X33.1149 Y6.6793
G01 X33.1109 Y6.6925
G01 X33.0919 Y6.7452
G01 X33.0681 Y6.7958
G01 X33.0616 Y6.8080
G01 X33.0327 Y6.8559
G01 X32.9995 Y6.9010
G01 X32.9907 Y6.9116
G01 X32.9530 Y6.9530
G01 X31.9480 Y7.9578
G01 X31.9064 Y7.9952
G01 X31.8616 Y8.0287
G01 X31.8501 Y8.0364
G01 X31.8080 Y8.0616
G01 X31.7958 Y8.0681
G01 X31.7452 Y8.0919
G01 X31.6925 Y8.1109
G01 X31.6793 Y8.1149
G01 X31.6317 Y8.1268
G01 X31.6182 Y8.1295
G01 X31.5628 Y8.1376
G01 X31.5000 Y8.1407
G01 X25.2500 Y8.1407
G01 X25.1872 Y8.1376
G01 X25.1250 Y8.1283
G01 X25.0640 Y8.1131
G01 X25.0113 Y8.0944
G01 X24.9985 Y8.0891
G01 X24.9480 Y8.0650
G01 X24.8999 Y8.0364
G01 X24.8884 Y8.0287
G01 X24.8436 Y7.9952
G01 X24.8020 Y7.9578
G01 X23.3344 Y6.4904
G01 X23.1656 Y6.4904
G01 X23.1407 Y6.5154
G01 X23.1407 Y11.3596
G01 X24.3675 Y12.5864
G01 X24.3778 Y12.5796
G01 X24.3869 Y12.5746
G01 X24.3963 Y12.5703
G01 X24.4060 Y12.5667
G01 X24.4159 Y12.5638
G01 X24.4260 Y12.5617
G01 X24.4362 Y12.5603
G01 X24.4466 Y12.5596
G01 X26.0500 Y12.5596
G01 X26.0638 Y12.5603
G01 X26.0740 Y12.5617
G01 X26.0808 Y12.5630
G01 X26.0940 Y12.5667
G01 X26.1069 Y12.5716
G01 X26.1192 Y12.5778
G01 X26.1308 Y12.5852
G01 X26.1417 Y12.5937
G01 X26.1517 Y12.6032
G01 X26.1607 Y12.6136
G01 X26.1686 Y12.6249
G01 X26.1738 Y12.6338
G01 X26.1797 Y12.6463
G01 X26.1844 Y12.6592
G01 X26.1877 Y12.6726
G01 X26.1897 Y12.6862
G01 X26.1904 Y12.6966
G01 X26.1902 Y14.3069
G01 X26.1889 Y14.3206
G01 X26.1862 Y14.3341
G01 X26.1822 Y14.3473
G01 X26.1769 Y14.3600
G01 X26.1722 Y14.3692
G01 X26.1648 Y14.3808
G01 X26.1563 Y14.3917
G01 X26.1468 Y14.4017
G01 X26.1364 Y14.4107
G01 X26.1251 Y14.4186
G01 X26.1162 Y14.4238
G01 X26.1037 Y14.4297
G01 X26.0908 Y14.4344
G01 X26.0774 Y14.4377
G01 X26.0638 Y14.4397
G01 X26.0500 Y14.4404
G01 X24.4466 Y14.4404
G01 X24.4362 Y14.4397
G01 X24.4294 Y14.4389
G01 X24.4192 Y14.4370
G01 X24.4092 Y14.4344
G01 X24.4027 Y14.4322
G01 X24.3931 Y14.4284
G01 X24.3838 Y14.4238
G01 X24.3749 Y14.4186
G01 X24.3636 Y14.4107
G01 X24.3532 Y14.4017
G01 X24.3437 Y14.3917
G01 X24.3352 Y14.3808
G01 X24.3278 Y14.3692
G01 X24.3216 Y14.3569
G01 X24.3167 Y14.3440
G01 X24.3130 Y14.3308
G01 X24.3107 Y14.3172
G01 X24.3096 Y14.3034
G01 X24.3096 Y14.1373
G01 X24.2500 Y14.1283
G01 X24.1957 Y14.1149
G01 X24.1825 Y14.1109
G01 X24.1363 Y14.0944
G01 X24.1235 Y14.0891
G01 X24.0730 Y14.0650
G01 X24.0191 Y14.0327
G01 X23.9686 Y13.9952
G01 X23.9245 Y13.9554
G01 X22.0446 Y12.0755
G01 X22.0048 Y12.0314
G01 X21.9673 Y11.9809
G01 X21.9350 Y11.9270
G01 X21.9109 Y11.8765
G01 X21.9068 Y11.8670
G01 X21.8869 Y11.8110
G01 X21.8717 Y11.7500
G01 X21.8624 Y11.6878
G01 X21.8593 Y11.6250
G01 X21.8593 Y6.2500
G01 X21.8619 Y6.1941
G01 X21.8633 Y6.1804
G01 X21.8717 Y6.1250
G01 X21.8851 Y6.0707
G01 X21.8891 Y6.0575
G01 X21.9081 Y6.0048
G01 X21.9319 Y5.9542
G01 X21.9384 Y5.9420
G01 X21.9673 Y5.8941
G01 X22.0048 Y5.8436
G01 X22.0446 Y5.7995
G01 X22.2596 Y5.5844
G01 X22.2596 Y4.6466
G01 X22.2607 Y4.6328
G01 X22.2617 Y4.6260
G01 X22.2638 Y4.6159
G01 X22.2678 Y4.6027
G01 X22.2731 Y4.5900
G01 X22.2778 Y4.5808
G01 X22.2833 Y4.5720
G01 X22.2893 Y4.5636
G01 X22.2937 Y4.5583
G01 X22.3007 Y4.5507
G01 X22.3083 Y4.5437
G01 X22.3164 Y4.5372
G01 X22.3249 Y4.5314
G01 X22.3308 Y4.5278
G01 X22.3400 Y4.5231
G01 X22.3495 Y4.5190
G01 X22.3592 Y4.5156
G01 X22.3692 Y4.5130
G01 X22.3794 Y4.5111
G01 X22.3862 Y4.5103
G01 X22.3966 Y4.5096
G01 X24.1034 Y4.5096
G01 X24.1138 Y4.5103
G01 X24.1240 Y4.5117
G01 X24.1341 Y4.5138
G01 X24.1440 Y4.5167
G01 X24.1537 Y4.5203
G01 X24.1631 Y4.5246
G01 X24.1722 Y4.5296
G01 X24.1808 Y4.5352
G01 X24.1864 Y4.5393
G01 X24.1943 Y4.5460
G01 X24.2040 Y4.5557
G01 X24.2107 Y4.5636
G01 X24.2148 Y4.5692
G01 X24.2186 Y4.5749
G01 X24.2238 Y4.5838
G01 X24.2269 Y4.5900
G01 X24.2310 Y4.5995
G01 X24.2353 Y4.6126
G01 X24.2370 Y4.6192
G01 X24.2389 Y4.6294
G01 X24.2402 Y4.6431
G01 X24.2404 Y5.5844
G01 X25.5154 Y6.8593
G01 X31.2346 Y6.8593
G01 X31.8593 Y6.2346
G01 X31.8593 Y3.7654
G01 X31.2346 Y3.1407
G01 X4.6979 Y3.1407
G01 X2.1407 Y5.6979
G01 X2.1407 Y22.2467
G01 X3.2533 Y23.3593
G01 X5.7346 Y23.3593
G01 X9.9603 Y19.1336
G01 X9.9725 Y19.1079
G01 X9.9773 Y19.0987
G01 X10.0212 Y19.0254
G01 X10.0271 Y19.0169
G01 X10.0738 Y18.9538
G01 X10.0803 Y18.9458
G01 X10.1400 Y18.8800
G01 X10.2032 Y18.8226
G01 X10.2138 Y18.8138
G01 X10.2825 Y18.7631
G01 X10.3557 Y18.7190
G01 X10.3679 Y18.7125
G01 X10.4451 Y18.6762
G01 X10.5255 Y18.6473
G01 X10.5387 Y18.6433
G01 X10.6215 Y18.6227
G01 X10.7128 Y18.6091
G01 X10.8050 Y18.6046
G01 X11.6050 Y18.6046
G01 X11.6972 Y18.6091
G01 X11.7885 Y18.6227
G01 X11.8780 Y18.6451
G01 X11.9649 Y18.6762
G01 X12.0483 Y18.7156
G01 X12.1275 Y18.7631
G01 X12.2016 Y18.8181
G01 X12.2700 Y18.8800
G01 X12.3274 Y18.9432
G01 X12.3341 Y18.9511
G01 X12.3869 Y19.0225
G01 X12.4344 Y19.1017
G01 X12.4738 Y19.1851
G01 X12.5049 Y19.2720
G01 X12.5273 Y19.3615
G01 X12.5409 Y19.4528
G01 X12.5454 Y19.5450
G01 X12.5409 Y19.6372
G01 X12.5273 Y19.7285
G01 X12.5049 Y19.8180
G01 X12.4738 Y19.9049
G01 X12.4344 Y19.9883
G01 X12.3869 Y20.0675
G01 X12.3319 Y20.1416
G01 X12.2700 Y20.2100
G01 X12.2068 Y20.2674
G01 X12.1989 Y20.2741
G01 X12.1275 Y20.3269
G01 X12.0543 Y20.3710
G01 X12.0421 Y20.3775
G01 X11.9649 Y20.4138
G01 X11.8845 Y20.4427
G01 X11.8713 Y20.4467
G01 X11.7885 Y20.4673
G01 X11.6972 Y20.4809
G01 X11.6050 Y20.4854
G01 X10.7981 Y20.4852
G01 X10.7128 Y20.4809
G01 X10.6249 Y20.4680
G01 X10.6148 Y20.4658
G01 X10.5353 Y20.4459
G01 X10.5255 Y20.4427
G01 X10.4797 Y20.4264
G00 Z1.0000
G00 X11.4451 Y20.7241
G01 F60.00
G01 Z-0.0700
G01 F500.00
G01 X11.2633 Y20.9059
G01 X10.7957 Y20.9060
G01 X10.7080 Y20.9102
G01 X10.6894 Y20.9116
G01 X10.6710 Y20.9139
G01 X10.5933 Y20.9254
G01 X10.5750 Y20.9286
G01 X10.5568 Y20.9327
G01 X10.4807 Y20.9517
G01 X10.4627 Y20.9567
G01 X10.4451 Y20.9625
G01 X10.3711 Y20.9890
G01 X10.3452 Y20.9993
G01 X10.2658 Y21.0368
G01 X10.2410 Y21.0496
G01 X10.1577 Y21.0996
G01 X10.1423 Y21.1099
G01 X10.1095 Y21.1340
G01 X10.5483 Y20.6952
G01 X10.5659 Y20.6995
G01 X10.5841 Y20.7031
G01 X10.6802 Y20.7174
G01 X10.7080 Y20.7198
G01 X10.7957 Y20.7240
G01 X11.4451 Y20.7241
G00 Z1.0000
G00 X12.5053 Y21.8134
G01 F60.00
G01 Z-0.0700
G01 F500.00
G01 X12.5273 Y21.9015
G01 X12.5409 Y21.9928
G01 X12.5454 Y22.0850
G01 X12.5414 Y22.1703
G01 X12.5400 Y22.1840
G01 X12.5273 Y22.2685
G01 X12.5067 Y22.3513
G01 X12.5027 Y22.3645
G01 X12.4763 Y22.4384
G01 X12.4710 Y22.4512
G01 X12.4344 Y22.5283
G01 X12.3906 Y22.6016
G01 X12.3829 Y22.6131
G01 X12.3319 Y22.6816
G01 X12.2700 Y22.7500
G01 X12.2016 Y22.8119
G01 X12.1275 Y22.8669
G01 X12.0483 Y22.9144
G01 X11.9649 Y22.9538
G01 X11.8780 Y22.9849
G01 X11.7952 Y23.0058
G01 X11.7851 Y23.0080
G01 X11.6972 Y23.0209
G01 X11.6084 Y23.0254
G01 X10.7981 Y23.0252
G01 X10.7128 Y23.0209
G01 X10.6215 Y23.0073
G01 X10.5320 Y22.9849
G01 X10.4483 Y22.9551
G01 X10.4388 Y22.9510
G01 X10.3617 Y22.9144
G01 X10.2884 Y22.8706
G01 X10.2769 Y22.8629
G01 X10.2084 Y22.8119
G01 X10.1450 Y22.7547
G01 X10.1353 Y22.7450
G01 X10.0781 Y22.6816
G01 X10.0271 Y22.6131
G01 X10.0194 Y22.6016
G01 X9.9756 Y22.5283
G01 X9.9390 Y22.4512
G01 X9.9337 Y22.4384
G01 X9.9051 Y22.3580
G01 X9.8842 Y22.2752
G01 X9.8820 Y22.2651
G01 X9.8700 Y22.1840
G01 X9.8686 Y22.1703
G01 X9.8646 Y22.0850
G01 X9.8686 Y21.9997
G01 X9.8700 Y21.9860
G01 X9.8827 Y21.9015
G01 X9.9033 Y21.8187
G01 X9.9073 Y21.8055
G01 X9.9362 Y21.7251
G01 X9.9725 Y21.6479
G01 X9.9790 Y21.6357
G01 X10.0231 Y21.5625
G01 X10.0738 Y21.4938
G01 X10.0826 Y21.4832
G01 X10.1400 Y21.4200
G01 X10.2058 Y21.3603
G01 X10.2138 Y21.3538
G01 X10.2825 Y21.3031
G01 X10.3557 Y21.2590
G01 X10.3679 Y21.2525
G01 X10.4451 Y21.2162
G01 X10.5255 Y21.1873
G01 X10.5387 Y21.1833
G01 X10.6215 Y21.1627
G01 X10.7128 Y21.1491
G01 X10.8016 Y21.1446
G01 X11.3621 Y21.1446
G01 X12.8593 Y19.6474
G01 X12.8593 Y12.0473
G01 X12.8624 Y11.9845
G01 X12.8717 Y11.9223
G01 X12.8869 Y11.8613
G01 X12.9056 Y11.8085
G01 X12.9095 Y11.7989
G01 X12.9350 Y11.7453
G01 X12.9673 Y11.6913
G01 X13.0048 Y11.6408
G01 X13.0470 Y11.5943
G01 X17.5943 Y7.0470
G01 X17.6408 Y7.0048
G01 X17.6913 Y6.9673
G01 X17.7453 Y6.9350
G01 X17.7958 Y6.9109
G01 X17.8085 Y6.9056
G01 X17.8613 Y6.8869
G01 X17.9155 Y6.8732
G01 X17.9291 Y6.8705
G01 X17.9845 Y6.8624
G01 X18.0404 Y6.8595
G01 X20.3093 Y6.8593
G01 X20.3093 Y4.0500
G01 X20.3119 Y3.9941
G01 X20.3128 Y3.9838
G01 X20.3205 Y3.9318
G01 X20.3232 Y3.9183
G01 X20.3369 Y3.8640
G01 X20.3556 Y3.8113
G01 X20.3609 Y3.7985
G01 X20.3850 Y3.7480
G01 X20.4136 Y3.6999
G01 X20.4193 Y3.6912
G01 X20.4548 Y3.6436
G01 X20.4946 Y3.5995
G01 X20.7470 Y3.3470
G01 X20.7884 Y3.3093
G01 X20.7990 Y3.3005
G01 X20.8384 Y3.2713
G01 X20.8499 Y3.2636
G01 X20.8980 Y3.2350
G01 X20.9485 Y3.2109
G01 X20.9613 Y3.2056
G01 X21.0140 Y3.1869
G01 X21.0750 Y3.1717
G01 X21.1372 Y3.1624
G01 X21.1966 Y3.1594
G01 X25.3000 Y3.1593
G01 X25.3559 Y3.1619
G01 X25.3662 Y3.1628
G01 X25.4250 Y3.1717
G01 X25.4793 Y3.1851
G01 X25.4925 Y3.1891
G01 X25.5452 Y3.2081
G01 X25.6020 Y3.2350
G01 X25.6501 Y3.2636
G01 X25.6616 Y3.2713
G01 X25.7010 Y3.3005
G01 X25.7091 Y3.3070
G01 X25.7530 Y3.3470
G01 X26.9156 Y4.5096
G01 X27.8500 Y4.5096
G01 X27.8569 Y4.5098
G01 X27.8672 Y4.5107
G01 X27.8808 Y4.5130
G01 X27.8940 Y4.5167
G01 X27.9069 Y4.5216
G01 X27.9162 Y4.5262
G01 X27.9251 Y4.5314
G01 X27.9364 Y4.5393
G01 X27.9468 Y4.5483
G01 X27.9563 Y4.5583
G01 X27.9628 Y4.5664
G01 X27.9704 Y4.5778
G01 X27.9769 Y4.5900
G01 X27.9822 Y4.6027
G01 X27.9862 Y4.6159
G01 X27.9889 Y4.6294
G01 X27.9902 Y4.6431
G01 X27.9904 Y4.6543
G01 X30.0628 Y4.6543
G01 X30.0803 Y4.6350
G01 X30.0875 Y4.6276
G01 X30.1508 Y4.5703
G01 X30.1588 Y4.5638
G01 X30.2247 Y4.5150
G01 X30.2334 Y4.5094
G01 X30.3067 Y4.4656
G01 X30.3870 Y4.4275
G01 X30.3966 Y4.4237
G01 X30.4770 Y4.3951
G01 X30.5665 Y4.3727
G01 X30.6578 Y4.3591
G01 X30.7431 Y4.3548
G01 X30.7569 Y4.3548
G01 X30.8422 Y4.3591
G01 X30.9335 Y4.3727
G01 X31.0230 Y4.3951
G01 X31.1034 Y4.4237
G01 X31.1162 Y4.4290
G01 X31.1933 Y4.4656
G01 X31.2666 Y4.5094
G01 X31.2781 Y4.5171
G01 X31.3412 Y4.5638
G01 X31.3518 Y4.5726
G01 X31.4150 Y4.6300
G01 X31.4724 Y4.6932
G01 X31.4812 Y4.7038
G01 X31.5319 Y4.7725
G01 X31.5760 Y4.8457
G01 X31.5825 Y4.8579
G01 X31.6188 Y4.9351
G01 X31.6477 Y5.0155
G01 X31.6517 Y5.0287
G01 X31.6723 Y5.1115
G01 X31.6859 Y5.2028
G01 X31.6902 Y5.2881
G01 X31.6902 Y5.3019
G01 X31.6859 Y5.3872
G01 X31.6735 Y5.4717
G01 X31.6708 Y5.4852
G01 X31.6499 Y5.5680
G01 X31.6213 Y5.6484
G01 X31.6160 Y5.6612
G01 X31.5794 Y5.7383
G01 X31.5356 Y5.8116
G01 X31.5279 Y5.8231
G01 X31.4769 Y5.8916
G01 X31.4150 Y5.9600
G01 X31.3466 Y6.0219
G01 X31.2781 Y6.0729
G01 X31.2666 Y6.0806
G01 X31.1933 Y6.1244
G01 X31.1162 Y6.1610
G01 X31.1034 Y6.1663
G01 X31.0263 Y6.1939
G01 X31.0163 Y6.1967
G01 X30.9402 Y6.2158
G01 X30.9267 Y6.2185
G01 X30.8422 Y6.2309
G01 X30.7500 Y6.2354
G01 X30.6647 Y6.2314
G01 X30.6510 Y6.2300
G01 X30.5665 Y6.2173
G01 X30.4803 Y6.1959
G01 X30.4705 Y6.1927
G01 X30.3966 Y6.1663
G01 X30.3838 Y6.1610
G01 X30.3067 Y6.1244
G01 X30.2304 Y6.0788
G01 X30.2219 Y6.0729
G01 X30.1588 Y6.0262
G01 X30.1508 Y6.0197
G01 X30.0875 Y5.9624
G01 X30.0803 Y5.9550
G01 X30.0628 Y5.9357
G01 X27.9904 Y5.9357
G01 X27.9904 Y6.3500
G01 X27.9897 Y6.3638
G01 X27.9883 Y6.3740
G01 X27.9862 Y6.3841
G01 X27.9833 Y6.3940
G01 X27.9797 Y6.4037
G01 X27.9769 Y6.4100
G01 X27.9722 Y6.4192
G01 X27.9667 Y6.4280
G01 X27.9607 Y6.4364
G01 X27.9540 Y6.4443
G01 X27.9493 Y6.4493
G01 X27.9417 Y6.4563
G01 X27.9336 Y6.4628
G01 X27.9251 Y6.4686
G01 X27.9162 Y6.4738
G01 X27.9069 Y6.4784
G01 X27.8973 Y6.4822
G01 X27.8908 Y6.4844
G01 X27.8808 Y6.4870
G01 X27.8706 Y6.4889
G01 X27.8603 Y6.4900
G01 X27.8500 Y6.4904
G01 X26.1466 Y6.4904
G01 X26.1328 Y6.4893
G01 X26.1226 Y6.4877
G01 X26.1126 Y6.4853
G01 X26.0995 Y6.4810
G01 X26.0869 Y6.4754
G01 X26.0749 Y6.4686
G01 X26.0636 Y6.4607
G01 X26.0557 Y6.4540
G01 X26.0460 Y6.4443
G01 X26.0372 Y6.4336
G01 X26.0314 Y6.4251
G01 X26.0246 Y6.4131
G01 X26.0190 Y6.4005
G01 X26.0156 Y6.3908
G01 X26.0123 Y6.3774
G01 X26.0107 Y6.3672
G01 X26.0100 Y6.3603
G01 X26.0096 Y6.3500
G01 X26.0096 Y5.4156
G01 X25.0346 Y4.4407
G01 X21.5907 Y4.4407
G01 X21.5907 Y10.4250
G01 X21.5876 Y10.4878
G01 X21.5783 Y10.5500
G01 X21.5649 Y10.6043
G01 X21.5609 Y10.6175
G01 X21.5419 Y10.6702
G01 X21.5181 Y10.7208
G01 X21.5116 Y10.7330
G01 X21.4827 Y10.7809
G01 X21.4495 Y10.8260
G01 X21.4407 Y10.8366
G01 X21.4030 Y10.8780
G01 X20.1391 Y12.1419
G01 X20.1249 Y12.1980
G01 X20.0951 Y12.2817
G01 X20.0910 Y12.2912
G01 X20.0575 Y12.3621
G01 X20.0527 Y12.3713
G01 X20.0069 Y12.4475
G01 X19.9562 Y12.5162
G01 X19.9474 Y12.5268
G01 X19.8924 Y12.5875
G01 X19.8850 Y12.5947
G01 X19.8216 Y12.6519
G01 X19.7531 Y12.7029
G01 X19.7416 Y12.7106
G01 X19.6743 Y12.7510
G01 X19.6621 Y12.7575
G01 X19.5849 Y12.7938
G01 X19.4980 Y12.8249
G01 X19.4085 Y12.8473
G01 X19.3240 Y12.8600
G01 X19.3103 Y12.8614
G01 X19.2250 Y12.8654
G01 X18.4216 Y12.8654
G01 X18.3328 Y12.8609
G01 X18.2483 Y12.8485
G01 X18.2348 Y12.8458
G01 X18.1520 Y12.8249
G01 X18.0651 Y12.7938
G01 X17.9879 Y12.7575
G01 X17.9757 Y12.7510
G01 X17.9084 Y12.7106
G01 X17.8969 Y12.7029
G01 X17.8284 Y12.6519
G01 X17.7600 Y12.5900
G01 X17.6981 Y12.5216
G01 X17.6431 Y12.4475
G01 X17.5956 Y12.3683
G01 X17.5590 Y12.2912
G01 X17.5537 Y12.2784
G01 X17.5273 Y12.2045
G01 X17.5233 Y12.1913
G01 X17.5027 Y12.1085
G01 X17.4891 Y12.0172
G01 X17.4846 Y11.9250
G01 X17.4891 Y11.8328
G01 X17.5027 Y11.7415
G01 X17.5233 Y11.6587
G01 X17.5273 Y11.6455
G01 X17.5562 Y11.5651
G01 X17.5925 Y11.4879
G01 X17.5990 Y11.4757
G01 X17.6431 Y11.4025
G01 X17.6981 Y11.3284
G01 X17.7553 Y11.2650
G01 X17.7650 Y11.2553
G01 X17.8232 Y11.2026
G01 X17.8338 Y11.1938
G01 X17.9025 Y11.1431
G01 X17.9757 Y11.0990
G01 X17.9879 Y11.0925
G01 X18.0651 Y11.0562
G01 X18.1520 Y11.0251
G01 X18.2415 Y11.0027
G01 X18.3260 Y10.9900
G01 X18.3397 Y10.9886
G01 X18.4250 Y10.9846
G01 X19.2284 Y10.9846
G01 X19.3103 Y10.9886
G01 X19.3206 Y10.9895
G01 X19.4051 Y11.0020
G01 X19.4152 Y11.0042
G01 X19.4549 Y11.0141
G01 X20.3093 Y10.1596
G01 X20.3093 Y8.1407
G01 X18.3126 Y8.1407
G01 X14.1407 Y12.3126
G01 X14.1407 Y19.9127
G01 X14.1376 Y19.9755
G01 X14.1290 Y20.0343
G01 X14.1268 Y20.0445
G01 X14.1149 Y20.0921
G01 X14.1109 Y20.1053
G01 X14.0919 Y20.1579
G01 X14.0650 Y20.2147
G01 X14.0364 Y20.2628
G01 X14.0287 Y20.2743
G01 X13.9952 Y20.3192
G01 X13.9578 Y20.3608
G01 X12.5053 Y21.8134
G00 Z1.0000
G00 X12.7670 Y21.8893
G01 F60.00
G01 Z-0.0700
G01 F500.00
G01 X12.7761 Y21.9510
G01 X12.7784 Y21.9694
G01 X12.7798 Y21.9880
G01 X12.7840 Y22.0757
G01 X12.7836 Y22.1036
G01 X12.7798 Y22.1820
G01 X12.7774 Y22.2098
G01 X12.7646 Y22.2967
G01 X12.7614 Y22.3150
G01 X12.7573 Y22.3332
G01 X12.7383 Y22.4093
G01 X12.7333 Y22.4273
G01 X12.7275 Y22.4449
G01 X12.7010 Y22.5189
G01 X12.6907 Y22.5448
G01 X12.6532 Y22.6242
G01 X12.6449 Y22.6408
G01 X12.6357 Y22.6570
G01 X12.5953 Y22.7243
G01 X12.5854 Y22.7401
G01 X12.5747 Y22.7553
G01 X12.5279 Y22.8183
G01 X12.5164 Y22.8330
G01 X12.5043 Y22.8471
G01 X12.4516 Y22.9053
G01 X12.4387 Y22.9187
G01 X12.4253 Y22.9316
G01 X12.3671 Y22.9843
G01 X12.3530 Y22.9964
G01 X12.3383 Y23.0079
G01 X12.2753 Y23.0547
G01 X12.2523 Y23.0704
G01 X12.1690 Y23.1204
G01 X12.1442 Y23.1332
G01 X12.0732 Y23.1668
G01 X12.0562 Y23.1743
G01 X12.0389 Y23.1810
G01 X11.9649 Y23.2075
G01 X11.9473 Y23.2133
G01 X11.9293 Y23.2183
G01 X11.8532 Y23.2373
G01 X11.8350 Y23.2414
G01 X11.8167 Y23.2446
G01 X11.7390 Y23.2561
G01 X11.7206 Y23.2584
G01 X11.7020 Y23.2598
G01 X11.6236 Y23.2636
G01 X11.6050 Y23.2641
G01 X10.7957 Y23.2640
G01 X10.7080 Y23.2598
G01 X10.6894 Y23.2584
G01 X10.6710 Y23.2561
G01 X10.5841 Y23.2431
G01 X10.5568 Y23.2373
G01 X10.4807 Y23.2183
G01 X10.4627 Y23.2133
G01 X10.4451 Y23.2075
G01 X10.3711 Y23.1810
G01 X10.3538 Y23.1743
G01 X10.3368 Y23.1668
G01 X10.2658 Y23.1332
G01 X10.2492 Y23.1249
G01 X10.2330 Y23.1157
G01 X10.1657 Y23.0753
G01 X10.1499 Y23.0654
G01 X10.1347 Y23.0547
G01 X10.0717 Y23.0079
G01 X10.0570 Y22.9964
G01 X10.0429 Y22.9843
G01 X9.9847 Y22.9316
G01 X9.9713 Y22.9187
G01 X9.9584 Y22.9053
G01 X9.9057 Y22.8471
G01 X9.8936 Y22.8330
G01 X9.8821 Y22.8183
G01 X9.8353 Y22.7553
G01 X9.8246 Y22.7401
G01 X9.8147 Y22.7243
G01 X9.7743 Y22.6570
G01 X9.7651 Y22.6408
G01 X9.7568 Y22.6242
G01 X9.7232 Y22.5532
G01 X9.7122 Y22.5276
G01 X9.6795 Y22.4361
G01 X9.6717 Y22.4093
G01 X9.6527 Y22.3332
G01 X9.6486 Y22.3150
G01 X9.6454 Y22.2967
G01 X9.6339 Y22.2190
G01 X9.6316 Y22.2006
G01 X9.6302 Y22.1820
G01 X9.6264 Y22.1036
G01 X9.6259 Y22.0850
G01 X9.6264 Y22.0664
G01 X9.6302 Y21.9880
G01 X9.6326 Y21.9602
G01 X9.6454 Y21.8733
G01 X9.6486 Y21.8550
G01 X9.6527 Y21.8368
G01 X9.6717 Y21.7607
G01 X9.6795 Y21.7339
G01 X9.7122 Y21.6424
G01 X9.7232 Y21.6168
G01 X9.7568 Y21.5458
G01 X9.7696 Y21.5210
G01 X9.8196 Y21.4377
G01 X9.8299 Y21.4223
G01 X9.8540 Y21.3895
G01 X6.6218 Y24.6218
G01 X6.6083 Y24.6346
G01 X6.5719 Y24.6676
G01 X6.5578 Y24.6797
G01 X6.5432 Y24.6912
G01 X6.5037 Y24.7204
G01 X6.4885 Y24.7311
G01 X6.4728 Y24.7411
G01 X6.4307 Y24.7663
G01 X6.4145 Y24.7755
G01 X6.3979 Y24.7839
G01 X6.3451 Y24.8087
G01 X6.3279 Y24.8158
G01 X6.2729 Y24.8356
G01 X6.2553 Y24.8415
G01 X6.2373 Y24.8464
G01 X6.1807 Y24.8605
G01 X6.1624 Y24.8641
G01 X6.1047 Y24.8728
G01 X6.0769 Y24.8759
G01 X6.0186 Y24.8789
G01 X6.0000 Y24.8793
G01 X2.9786 Y24.8792
G01 X2.9203 Y24.8765
G01 X2.9018 Y24.8751
G01 X2.8833 Y24.8728
G01 X2.8347 Y24.8656
G01 X2.8164 Y24.8624
G01 X2.7982 Y24.8584
G01 X2.7506 Y24.8464
G01 X2.7327 Y24.8415
G01 X2.7150 Y24.8356
G01 X2.6601 Y24.8158
G01 X2.6344 Y24.8049
G01 X2.5901 Y24.7839
G01 X2.5734 Y24.7755
G01 X2.5572 Y24.7663
G01 X2.5151 Y24.7411
G01 X2.4994 Y24.7311
G01 X2.4842 Y24.7204
G01 X2.4448 Y24.6912
G01 X2.4301 Y24.6797
G01 X2.4160 Y24.6676
G01 X2.3796 Y24.6346
G01 X2.3662 Y24.6218
G01 X0.8717 Y23.1272
G01 X0.8324 Y23.0840
G01 X0.8203 Y23.0699
G01 X0.8088 Y23.0552
G01 X0.7796 Y23.0158
G01 X0.7689 Y23.0006
G01 X0.7589 Y22.9849
G01 X0.7337 Y22.9428
G01 X0.7245 Y22.9266
G01 X0.7161 Y22.9099
G01 X0.6913 Y22.8571
G01 X0.6809 Y22.8312
G01 X0.6644 Y22.7850
G01 X0.6585 Y22.7673
G01 X0.6536 Y22.7494
G01 X0.6416 Y22.7018
G01 X0.6376 Y22.6836
G01 X0.6344 Y22.6653
G01 X0.6272 Y22.6167
G01 X0.6249 Y22.5982
G01 X0.6235 Y22.5797
G01 X0.6211 Y22.5307
G01 X0.6207 Y22.5121
G01 X0.6207 Y5.4325
G01 X0.6211 Y5.4139
G01 X0.6235 Y5.3649
G01 X0.6249 Y5.3463
G01 X0.6272 Y5.3278
G01 X0.6344 Y5.2793
G01 X0.6376 Y5.2610
G01 X0.6416 Y5.2428
G01 X0.6559 Y5.1862
G01 X0.6613 Y5.1684
G01 X0.6809 Y5.1134
G01 X0.6876 Y5.0960
G01 X0.6951 Y5.0790
G01 X0.7202 Y5.0262
G01 X0.7290 Y5.0098
G01 X0.7589 Y4.9597
G01 X0.7689 Y4.9440
G01 X0.7796 Y4.9288
G01 X0.8088 Y4.8893
G01 X0.8203 Y4.8747
G01 X0.8324 Y4.8606
G01 X0.8717 Y4.8174
G01 X3.8174 Y1.8717
G01 X3.8606 Y1.8324
G01 X3.8747 Y1.8203
G01 X3.8893 Y1.8088
G01 X3.9288 Y1.7796
G01 X3.9440 Y1.7689
G01 X3.9597 Y1.7589
G01 X4.0018 Y1.7337
G01 X4.0180 Y1.7245
G01 X4.0346 Y1.7161
G01 X4.0790 Y1.6951
G01 X4.0960 Y1.6876
G01 X4.1134 Y1.6809
G01 X4.1596 Y1.6644
G01 X4.1772 Y1.6585
G01 X4.1952 Y1.6536
G01 X4.2428 Y1.6416
G01 X4.2610 Y1.6376
G01 X4.2793 Y1.6344
G01 X4.3278 Y1.6272
G01 X4.3463 Y1.6249
G01 X4.3649 Y1.6235
G01 X4.4139 Y1.6211
G01 X4.4325 Y1.6207
G01 X31.5093 Y1.6208
G01 X31.5676 Y1.6235
G01 X31.5862 Y1.6249
G01 X31.6047 Y1.6272
G01 X31.6624 Y1.6359
G01 X31.6807 Y1.6395
G01 X31.7373 Y1.6536
G01 X31.7553 Y1.6585
G01 X31.7729 Y1.6644
G01 X31.8191 Y1.6809
G01 X31.8365 Y1.6876
G01 X31.8535 Y1.6951
G01 X31.8979 Y1.7161
G01 X31.9145 Y1.7245
G01 X31.9307 Y1.7337
G01 X31.9728 Y1.7589
G01 X31.9885 Y1.7689
G01 X32.0037 Y1.7796
G01 X32.0506 Y1.8145
G01 X32.0719 Y1.8324
G01 X32.1083 Y1.8654
G01 X32.1218 Y1.8782
G01 X33.1283 Y2.8849
G01 X33.1676 Y2.9281
G01 X33.1797 Y2.9422
G01 X33.1912 Y2.9568
G01 X33.2204 Y2.9963
G01 X33.2311 Y3.0115
G01 X33.2411 Y3.0272
G01 X33.2663 Y3.0693
G01 X33.2755 Y3.0855
G01 X33.2839 Y3.1021
G01 X33.3087 Y3.1549
G01 X33.3191 Y3.1809
G01 X33.3387 Y3.2359
G01 X33.3441 Y3.2537
G01 X33.3584 Y3.3103
G01 X33.3641 Y3.3376
G01 X33.3728 Y3.3953
G01 X33.3751 Y3.4138
G01 X33.3765 Y3.4324
G01 X33.3789 Y3.4814
G01 X33.3793 Y3.5000
G01 X33.3793 Y6.5000
G01 X33.3789 Y6.5186
G01 X33.3765 Y6.5676
G01 X33.3751 Y6.5862
G01 X33.3728 Y6.6047
G01 X33.3641 Y6.6624
G01 X33.3584 Y6.6897
G01 X33.3464 Y6.7373
G01 X33.3415 Y6.7553
G01 X33.3356 Y6.7729
G01 X33.3191 Y6.8191
G01 X33.3087 Y6.8451
G01 X33.2839 Y6.8979
G01 X33.2755 Y6.9145
G01 X33.2663 Y6.9307
G01 X33.2362 Y6.9807
G01 X33.2204 Y7.0037
G01 X33.1912 Y7.0432
G01 X33.1797 Y7.0578
G01 X33.1676 Y7.0719
G01 X33.1283 Y7.1151
G01 X32.1218 Y8.1218
G01 X32.1083 Y8.1346
G01 X32.0719 Y8.1676
G01 X32.0578 Y8.1797
G01 X32.0432 Y8.1912
G01 X32.0037 Y8.2204
G01 X31.9885 Y8.2311
G01 X31.9728 Y8.2411
G01 X31.9307 Y8.2663
G01 X31.9145 Y8.2755
G01 X31.8979 Y8.2839
G01 X31.8535 Y8.3049
G01 X31.8365 Y8.3124
G01 X31.8191 Y8.3191
G01 X31.7729 Y8.3356
G01 X31.7553 Y8.3415
G01 X31.7373 Y8.3464
G01 X31.6897 Y8.3584
G01 X31.6715 Y8.3624
G01 X31.6532 Y8.3656
G01 X31.6047 Y8.3728
G01 X31.5862 Y8.3751
G01 X31.5676 Y8.3765
G01 X31.5186 Y8.3789
G01 X31.5000 Y8.3793
G01 X25.2500 Y8.3793
G01 X25.2314 Y8.3789
G01 X25.1824 Y8.3765
G01 X25.1638 Y8.3751
G01 X25.1453 Y8.3728
G01 X25.0876 Y8.3641
G01 X25.0693 Y8.3605
G01 X25.0127 Y8.3464
G01 X24.9859 Y8.3387
G01 X24.9309 Y8.3191
G01 X24.9135 Y8.3124
G01 X24.8965 Y8.3049
G01 X24.8521 Y8.2839
G01 X24.8273 Y8.2710
G01 X24.7772 Y8.2411
G01 X24.7615 Y8.2311
G01 X24.7463 Y8.2204
G01 X24.7068 Y8.1912
G01 X24.6850 Y8.1737
G01 X24.6417 Y8.1346
G01 X24.6282 Y8.1218
G01 X23.3793 Y6.8729
G01 X23.3793 Y11.2608
G01 X24.4396 Y12.3211
G01 X26.0500 Y12.3209
G01 X26.0779 Y12.3219
G01 X26.0964 Y12.3238
G01 X26.1148 Y12.3265
G01 X26.1331 Y12.3301
G01 X26.1511 Y12.3347
G01 X26.1689 Y12.3401
G01 X26.1864 Y12.3463
G01 X26.2036 Y12.3534
G01 X26.2204 Y12.3614
G01 X26.2368 Y12.3702
G01 X26.2528 Y12.3797
G01 X26.2683 Y12.3901
G01 X26.2832 Y12.4012
G01 X26.2976 Y12.4130
G01 X26.3114 Y12.4255
G01 X26.3245 Y12.4386
G01 X26.3370 Y12.4524
G01 X26.3545 Y12.4742
G01 X26.3652 Y12.4894
G01 X26.3751 Y12.5051
G01 X26.3886 Y12.5296
G01 X26.3966 Y12.5464
G01 X26.4037 Y12.5636
G01 X26.4128 Y12.5900
G01 X26.4199 Y12.6169
G01 X26.4235 Y12.6352
G01 X26.4262 Y12.6536
G01 X26.4286 Y12.6814
G01 X26.4291 Y12.7000
G01 X26.4291 Y14.3000
G01 X26.4286 Y14.3186
G01 X26.4273 Y14.3372
G01 X26.4235 Y14.3648
G01 X26.4199 Y14.3831
G01 X26.4128 Y14.4100
G01 X26.4037 Y14.4364
G01 X26.3966 Y14.4536
G01 X26.3886 Y14.4704
G01 X26.3751 Y14.4949
G01 X26.3599 Y14.5183
G01 X26.3488 Y14.5332
G01 X26.3370 Y14.5476
G01 X26.3180 Y14.5680
G01 X26.2976 Y14.5870
G01 X26.2832 Y14.5988
G01 X26.2606 Y14.6152
G01 X26.2449 Y14.6251
G01 X26.2204 Y14.6386
G01 X26.2036 Y14.6466
G01 X26.1864 Y14.6537
G01 X26.1600 Y14.6628
G01 X26.1331 Y14.6699
G01 X26.1148 Y14.6735
G01 X26.0872 Y14.6773
G01 X26.0593 Y14.6790
G01 X24.4407 Y14.6790
G01 X24.4128 Y14.6773
G01 X24.3944 Y14.6750
G01 X24.3760 Y14.6718
G01 X24.3489 Y14.6653
G01 X24.3223 Y14.6569
G01 X24.2964 Y14.6466
G01 X24.2713 Y14.6343
G01 X24.2551 Y14.6251
G01 X24.2394 Y14.6152
G01 X24.2168 Y14.5988
G01 X24.2024 Y14.5870
G01 X24.1886 Y14.5745
G01 X24.1755 Y14.5614
G01 X24.1630 Y14.5476
G01 X24.1512 Y14.5332
G01 X24.1348 Y14.5106
G01 X24.1249 Y14.4949
G01 X24.1157 Y14.4787
G01 X24.1073 Y14.4621
G01 X24.0998 Y14.4451
G01 X24.0931 Y14.4277
G01 X24.0847 Y14.4011
G01 X24.0801 Y14.3831
G01 X24.0765 Y14.3648
G01 X24.0738 Y14.3464
G01 X24.0718 Y14.3248
G01 X24.0471 Y14.3158
G01 X24.0299 Y14.3087
G01 X23.9687 Y14.2798
G01 X23.9443 Y14.2663
G01 X23.8943 Y14.2362
G01 X23.8713 Y14.2204
G01 X23.8318 Y14.1912
G01 X23.8172 Y14.1797
G01 X23.8031 Y14.1676
G01 X23.7599 Y14.1283
G01 X21.8782 Y12.2468
G01 X21.8654 Y12.2333
G01 X21.8324 Y12.1969
G01 X21.8203 Y12.1828
G01 X21.8088 Y12.1682
G01 X21.7741 Y12.1212
G01 X21.7589 Y12.0978
G01 X21.7337 Y12.0557
G01 X21.7245 Y12.0395
G01 X21.7161 Y12.0229
G01 X21.6951 Y11.9785
G01 X21.6842 Y11.9529
G01 X21.6613 Y11.8891
G01 X21.6536 Y11.8623
G01 X21.6416 Y11.8147
G01 X21.6376 Y11.7965
G01 X21.6344 Y11.7782
G01 X21.6272 Y11.7297
G01 X21.6241 Y11.7019
G01 X21.6211 Y11.6436
G01 X21.6207 Y11.6250
G01 X21.6207 Y10.9934
G01 X21.5846 Y11.0333
G01 X21.5718 Y11.0468
G01 X20.3541 Y12.2644
G01 X20.3475 Y12.2849
G01 X20.3210 Y12.3589
G01 X20.3143 Y12.3762
G01 X20.3068 Y12.3932
G01 X20.2732 Y12.4642
G01 X20.2649 Y12.4808
G01 X20.2557 Y12.4970
G01 X20.2153 Y12.5643
G01 X20.2054 Y12.5801
G01 X20.1947 Y12.5953
G01 X20.1479 Y12.6583
G01 X20.1305 Y12.6801
G01 X20.0652 Y12.7521
G01 X20.0453 Y12.7716
G01 X19.9871 Y12.8243
G01 X19.9730 Y12.8364
G01 X19.9583 Y12.8479
G01 X19.8953 Y12.8947
G01 X19.8801 Y12.9054
G01 X19.8643 Y12.9153
G01 X19.7970 Y12.9557
G01 X19.7808 Y12.9649
G01 X19.7642 Y12.9732
G01 X19.6932 Y13.0068
G01 X19.6762 Y13.0143
G01 X19.6589 Y13.0210
G01 X19.5849 Y13.0475
G01 X19.5673 Y13.0533
G01 X19.5493 Y13.0583
G01 X19.4732 Y13.0773
G01 X19.4550 Y13.0814
G01 X19.4367 Y13.0846
G01 X19.3590 Y13.0961
G01 X19.3406 Y13.0984
G01 X19.3220 Y13.0998
G01 X19.2436 Y13.1036
G01 X19.2250 Y13.1041
G01 X18.4250 Y13.1041
G01 X18.4064 Y13.1036
G01 X18.3187 Y13.0992
G01 X18.2910 Y13.0961
G01 X18.2133 Y13.0846
G01 X18.1950 Y13.0814
G01 X18.1768 Y13.0773
G01 X18.1007 Y13.0583
G01 X18.0827 Y13.0533
G01 X18.0651 Y13.0475
G01 X17.9911 Y13.0210
G01 X17.9738 Y13.0143
G01 X17.9568 Y13.0068
G01 X17.8858 Y12.9732
G01 X17.8692 Y12.9649
G01 X17.8530 Y12.9557
G01 X17.7857 Y12.9153
G01 X17.7699 Y12.9054
G01 X17.7547 Y12.8947
G01 X17.6917 Y12.8479
G01 X17.6770 Y12.8364
G01 X17.6629 Y12.8243
G01 X17.6047 Y12.7716
G01 X17.5913 Y12.7587
G01 X17.5784 Y12.7453
G01 X17.5257 Y12.6871
G01 X17.5136 Y12.6730
G01 X17.5021 Y12.6583
G01 X17.4499 Y12.5877
G01 X17.4347 Y12.5643
G01 X17.3943 Y12.4970
G01 X17.3851 Y12.4808
G01 X17.3768 Y12.4642
G01 X17.3432 Y12.3932
G01 X17.3357 Y12.3762
G01 X17.3290 Y12.3589
G01 X17.2995 Y12.2761
G01 X17.2917 Y12.2493
G01 X17.2727 Y12.1732
G01 X17.2669 Y12.1459
G01 X17.2526 Y12.0498
G01 X17.2508 Y12.0313
G01 X17.2489 Y11.9947
G01 X15.8811 Y13.3625
G01 X15.8811 Y17.3754
G01 X16.8799 Y16.3767
G01 X16.9231 Y16.3374
G01 X16.9444 Y16.3195
G01 X16.9988 Y16.2791
G01 X17.0222 Y16.2639
G01 X17.0643 Y16.2387
G01 X17.0805 Y16.2295
G01 X17.0971 Y16.2211
G01 X17.1415 Y16.2001
G01 X17.1585 Y16.1926
G01 X17.1759 Y16.1859
G01 X17.2221 Y16.1694
G01 X17.2397 Y16.1635
G01 X17.2577 Y16.1586
G01 X17.3143 Y16.1445
G01 X17.3326 Y16.1409
G01 X17.3903 Y16.1322
G01 X17.4088 Y16.1299
G01 X17.4274 Y16.1285
G01 X17.4857 Y16.1258
G01 X17.6409 Y16.1257
G01 X17.6699 Y16.0995
G01 X17.6843 Y16.0877
G01 X17.7547 Y16.0353
G01 X17.7777 Y16.0196
G01 X17.8530 Y15.9743
G01 X17.8692 Y15.9651
G01 X17.8858 Y15.9568
G01 X17.9568 Y15.9232
G01 X17.9824 Y15.9122
G01 X18.0651 Y15.8825
G01 X18.0827 Y15.8767
G01 X18.1007 Y15.8717
G01 X18.1768 Y15.8527
G01 X18.1950 Y15.8486
G01 X18.2133 Y15.8454
G01 X18.2910 Y15.8339
G01 X18.3094 Y15.8316
G01 X18.3280 Y15.8302
G01 X18.4157 Y15.8260
G01 X19.2343 Y15.8260
G01 X19.3220 Y15.8302
G01 X19.3406 Y15.8316
G01 X19.3590 Y15.8339
G01 X19.4367 Y15.8454
G01 X19.4550 Y15.8486
G01 X19.4732 Y15.8527
G01 X19.5493 Y15.8717
G01 X19.5673 Y15.8767
G01 X19.5849 Y15.8825
G01 X19.6589 Y15.9090
G01 X19.6762 Y15.9157
G01 X19.6932 Y15.9232
G01 X19.7726 Y15.9609
G01 X19.7970 Y15.9743
G01 X19.8643 Y16.0147
G01 X19.8877 Y16.0299
G01 X19.9657 Y16.0877
G01 X19.9801 Y16.0995
G01 X20.0092 Y16.1257
G01 X20.0726 Y16.1285
G01 X20.0912 Y16.1299
G01 X20.1097 Y16.1322
G01 X20.1582 Y16.1394
G01 X20.1765 Y16.1426
G01 X20.1947 Y16.1466
G01 X20.2423 Y16.1586
G01 X20.2603 Y16.1635
G01 X20.2779 Y16.1694
G01 X20.3241 Y16.1859
G01 X20.3501 Y16.1963
G01 X20.4029 Y16.2211
G01 X20.4195 Y16.2295
G01 X20.4357 Y16.2387
G01 X20.4778 Y16.2639
G01 X20.4935 Y16.2739
G01 X20.5087 Y16.2846
G01 X20.5482 Y16.3138
G01 X20.5628 Y16.3253
G01 X20.5769 Y16.3374
G01 X20.6133 Y16.3704
G01 X20.6268 Y16.3832
G01 X21.3292 Y17.0857
G01 X24.0221 Y17.0857
G01 X24.0250 Y17.0594
G01 X24.0301 Y17.0319
G01 X24.0372 Y17.0050
G01 X24.0463 Y16.9786
G01 X24.0573 Y16.9529
G01 X24.0702 Y16.9282
G01 X24.0848 Y16.9044
G01 X24.1012 Y16.8818
G01 X24.1191 Y16.8604
G01 X24.1386 Y16.8405
G01 X24.1595 Y16.8220
G01 X24.1817 Y16.8051
G01 X24.2051 Y16.7899
G01 X24.2296 Y16.7764
G01 X24.2549 Y16.7648
G01 X24.2723 Y16.7581
G01 X24.2834 Y16.7543
G01 X21.3657 Y16.7542
G01 X21.3074 Y16.7515
G01 X21.2888 Y16.7501
G01 X21.2703 Y16.7478
G01 X21.2218 Y16.7406
G01 X21.2035 Y16.7374
G01 X21.1853 Y16.7334
G01 X21.1377 Y16.7214
G01 X21.1197 Y16.7165
G01 X21.1021 Y16.7106
G01 X21.0559 Y16.6941
G01 X21.0299 Y16.6837
G01 X20.9687 Y16.6548
G01 X20.9443 Y16.6413
G01 X20.8943 Y16.6112
G01 X20.8713 Y16.5954
G01 X20.8244 Y16.5605
G01 X20.8100 Y16.5487
G01 X20.7667 Y16.5096
G01 X20.7532 Y16.4968
G01 X19.7679 Y15.5114
G01 X19.6848 Y15.5507
G01 X19.6589 Y15.5610
G01 X19.5849 Y15.5875
G01 X19.5673 Y15.5933
G01 X19.5493 Y15.5983
G01 X19.4732 Y15.6173
G01 X19.4459 Y15.6231
G01 X19.3498 Y15.6374
G01 X19.3220 Y15.6398
G01 X19.2343 Y15.6440
G01 X18.4250 Y15.6441
G01 X18.4064 Y15.6436
G01 X18.3187 Y15.6392
G01 X18.2910 Y15.6361
G01 X18.2133 Y15.6246
G01 X18.1950 Y15.6214
G01 X18.1768 Y15.6173
G01 X18.1007 Y15.5983
G01 X18.0827 Y15.5933
G01 X18.0651 Y15.5875
G01 X17.9911 Y15.5610
G01 X17.9738 Y15.5543
G01 X17.9568 Y15.5468
G01 X17.8858 Y15.5132
G01 X17.8692 Y15.5049
G01 X17.8530 Y15.4957
G01 X17.7857 Y15.4553
G01 X17.7699 Y15.4454
G01 X17.7547 Y15.4347
G01 X17.6917 Y15.3879
G01 X17.6770 Y15.3764
G01 X17.6629 Y15.3643
G01 X17.6047 Y15.3116
G01 X17.5913 Y15.2987
G01 X17.5784 Y15.2853
G01 X17.5195 Y15.2201
G01 X17.5021 Y15.1983
G01 X17.4553 Y15.1353
G01 X17.4446 Y15.1201
G01 X17.4347 Y15.1043
G01 X17.3943 Y15.0370
G01 X17.3851 Y15.0208
G01 X17.3768 Y15.0042
G01 X17.3432 Y14.9332
G01 X17.3357 Y14.9162
G01 X17.3290 Y14.8989
G01 X17.3025 Y14.8249
G01 X17.2967 Y14.8073
G01 X17.2917 Y14.7893
G01 X17.2705 Y14.7041
G01 X17.2654 Y14.6767
G01 X17.2539 Y14.5990
G01 X17.2516 Y14.5806
G01 X17.2502 Y14.5620
G01 X17.2464 Y14.4836
G01 X17.2459 Y14.4650
G01 X17.2464 Y14.4464
G01 X17.2502 Y14.3680
G01 X17.2516 Y14.3494
G01 X17.2539 Y14.3310
G01 X17.2669 Y14.2441
G01 X17.2727 Y14.2168
G01 X17.2917 Y14.1407
G01 X17.2967 Y14.1227
G01 X17.3025 Y14.1051
G01 X17.3290 Y14.0311
G01 X17.3357 Y14.0138
G01 X17.3432 Y13.9968
G01 X17.3768 Y13.9258
G01 X17.3851 Y13.9092
G01 X17.3943 Y13.8930
G01 X17.4347 Y13.8257
G01 X17.4499 Y13.8023
G01 X17.5021 Y13.7317
G01 X17.5136 Y13.7170
G01 X17.5257 Y13.7029
G01 X17.5784 Y13.6447
G01 X17.5913 Y13.6313
G01 X17.6047 Y13.6184
G01 X17.6629 Y13.5657
G01 X17.6770 Y13.5536
G01 X17.6917 Y13.5421
G01 X17.7547 Y13.4953
G01 X17.7699 Y13.4846
G01 X17.7857 Y13.4747
G01 X17.8530 Y13.4343
G01 X17.8692 Y13.4251
G01 X17.8858 Y13.4168
G01 X17.9568 Y13.3832
G01 X17.9738 Y13.3757
G01 X17.9911 Y13.3690
G01 X18.0651 Y13.3425
G01 X18.0827 Y13.3367
G01 X18.1007 Y13.3317
G01 X18.1768 Y13.3127
G01 X18.1950 Y13.3086
G01 X18.2133 Y13.3054
G01 X18.2910 Y13.2939
G01 X18.3094 Y13.2916
G01 X18.3280 Y13.2902
G01 X18.4064 Y13.2864
G01 X18.4250 Y13.2859
G01 X19.2343 Y13.2860
G01 X19.3220 Y13.2902
G01 X19.3406 Y13.2916
G01 X19.3590 Y13.2939
G01 X19.4367 Y13.3054
G01 X19.4550 Y13.3086
G01 X19.4732 Y13.3127
G01 X19.5493 Y13.3317
G01 X19.5673 Y13.3367
G01 X19.5849 Y13.3425
G01 X19.6589 Y13.3690
G01 X19.6848 Y13.3793
G01 X19.7726 Y13.4209
G01 X19.7970 Y13.4343
G01 X19.8723 Y13.4796
G01 X19.8953 Y13.4953
G01 X19.9657 Y13.5477
G01 X19.9801 Y13.5595
G01 X20.0111 Y13.5875
G01 X20.0419 Y13.5891
G01 X20.0604 Y13.5909
G01 X20.1274 Y13.6009
G01 X20.1457 Y13.6045
G01 X20.2023 Y13.6186
G01 X20.2291 Y13.6263
G01 X20.2841 Y13.6459
G01 X20.3015 Y13.6526
G01 X20.3185 Y13.6601
G01 X20.3629 Y13.6811
G01 X20.3877 Y13.6940
G01 X20.4378 Y13.7239
G01 X20.4535 Y13.7339
G01 X20.4687 Y13.7446
G01 X20.5082 Y13.7738
G01 X20.5228 Y13.7853
G01 X20.5369 Y13.7974
G01 X20.5733 Y13.8304
G01 X20.5868 Y13.8432
G01 X21.7392 Y14.9957
G01 X26.3858 Y14.9957
G01 X26.5482 Y14.8332
G01 X26.5617 Y14.8204
G01 X26.5981 Y14.7874
G01 X26.6122 Y14.7753
G01 X26.6268 Y14.7638
G01 X26.6663 Y14.7346
G01 X26.6815 Y14.7239
G01 X26.6972 Y14.7139
G01 X26.7393 Y14.6887
G01 X26.7555 Y14.6795
G01 X26.7721 Y14.6711
G01 X26.8165 Y14.6501
G01 X26.8335 Y14.6426
G01 X26.8509 Y14.6359
G01 X26.8971 Y14.6194
G01 X26.9147 Y14.6135
G01 X26.9327 Y14.6086
G01 X26.9803 Y14.5966
G01 X26.9985 Y14.5926
G01 X27.0168 Y14.5894
G01 X27.0653 Y14.5822
G01 X27.0838 Y14.5799
G01 X27.1024 Y14.5785
G01 X27.1514 Y14.5761
G01 X27.1700 Y14.5757
G01 X28.6271 Y14.5757
G01 X25.9782 Y11.9267
G01 X25.9203 Y11.9697
G01 X25.9051 Y11.9804
G01 X25.8893 Y11.9903
G01 X25.8220 Y12.0307
G01 X25.7976 Y12.0441
G01 X25.7182 Y12.0818
G01 X25.6926 Y12.0928
G01 X25.6011 Y12.1255
G01 X25.5743 Y12.1333
G01 X25.4982 Y12.1523
G01 X25.4709 Y12.1581
G01 X25.3748 Y12.1724
G01 X25.3470 Y12.1748
G01 X25.2593 Y12.1790
G01 X25.2314 Y12.1786
G01 X25.1530 Y12.1748
G01 X25.1344 Y12.1734
G01 X25.1160 Y12.1711
G01 X25.0383 Y12.1596
G01 X25.0200 Y12.1564
G01 X25.0018 Y12.1523
G01 X24.9257 Y12.1333
G01 X24.9077 Y12.1283
G01 X24.8901 Y12.1225
G01 X24.8161 Y12.0960
G01 X24.7988 Y12.0893
G01 X24.7818 Y12.0818
G01 X24.7108 Y12.0482
G01 X24.6942 Y12.0399
G01 X24.6780 Y12.0307
G01 X24.6107 Y11.9903
G01 X24.5949 Y11.9804
G01 X24.5797 Y11.9697
G01 X24.5167 Y11.9229
G01 X24.5020 Y11.9114
G01 X24.4879 Y11.8993
G01 X24.4297 Y11.8466
G01 X24.4163 Y11.8337
G01 X24.4034 Y11.8203
G01 X24.3507 Y11.7621
G01 X24.3386 Y11.7480
G01 X24.3271 Y11.7333
G01 X24.2749 Y11.6627
G01 X24.2597 Y11.6393
G01 X24.2193 Y11.5720
G01 X24.2101 Y11.5558
G01 X24.2018 Y11.5392
G01 X24.1682 Y11.4682
G01 X24.1607 Y11.4512
G01 X24.1540 Y11.4339
G01 X24.1275 Y11.3599
G01 X24.1217 Y11.3423
G01 X24.1167 Y11.3243
G01 X24.0977 Y11.2482
G01 X24.0936 Y11.2300
G01 X24.0904 Y11.2117
G01 X24.0789 Y11.1340
G01 X24.0766 Y11.1156
G01 X24.0752 Y11.0970
G01 X24.0714 Y11.0186
G01 X24.0709 Y11.0000
G01 X24.0714 Y10.9814
G01 X24.0752 Y10.9030
G01 X24.0776 Y10.8752
G01 X24.0904 Y10.7883
G01 X24.0936 Y10.7700
G01 X24.0977 Y10.7518
G01 X24.1167 Y10.6757
G01 X24.1217 Y10.6577
G01 X24.1275 Y10.6401
G01 X24.1540 Y10.5661
G01 X24.1607 Y10.5488
G01 X24.1682 Y10.5318
G01 X24.2018 Y10.4608
G01 X24.2101 Y10.4442
G01 X24.2193 Y10.4280
G01 X24.2597 Y10.3607
G01 X24.2696 Y10.3449
G01 X24.2803 Y10.3297
G01 X24.3271 Y10.2667
G01 X24.3386 Y10.2520
G01 X24.3507 Y10.2379
G01 X24.4034 Y10.1797
G01 X24.4163 Y10.1663
G01 X24.4297 Y10.1534
G01 X24.4879 Y10.1007
G01 X24.5020 Y10.0886
G01 X24.5167 Y10.0771
G01 X24.5797 Y10.0303
G01 X24.5949 Y10.0196
G01 X24.6107 Y10.0097
G01 X24.6780 Y9.9693
G01 X24.6942 Y9.9601
G01 X24.7108 Y9.9518
G01 X24.7818 Y9.9182
G01 X24.7988 Y9.9107
G01 X24.8161 Y9.9040
G01 X24.8901 Y9.8775
G01 X24.9077 Y9.8717
G01 X24.9257 Y9.8667
G01 X25.0018 Y9.8477
G01 X25.0200 Y9.8436
G01 X25.0383 Y9.8404
G01 X25.1160 Y9.8289
G01 X25.1344 Y9.8266
G01 X25.1530 Y9.8252
G01 X25.2314 Y9.8214
G01 X25.2500 Y9.8209
G01 X25.2686 Y9.8214
G01 X25.3563 Y9.8258
G01 X25.3840 Y9.8289
G01 X25.4617 Y9.8404
G01 X25.4800 Y9.8436
G01 X25.4982 Y9.8477
G01 X25.5743 Y9.8667
G01 X25.5923 Y9.8717
G01 X25.6099 Y9.8775
G01 X25.6839 Y9.9040
G01 X25.7098 Y9.9143
G01 X25.7892 Y9.9518
G01 X25.8058 Y9.9601
G01 X25.8220 Y9.9693
G01 X25.8973 Y10.0146
G01 X25.9203 Y10.0303
G01 X25.9907 Y10.0827
G01 X26.0051 Y10.0945
G01 X26.0341 Y10.1207
G01 X26.2950 Y10.1207
G01 X26.3136 Y10.1211
G01 X26.3719 Y10.1241
G01 X26.3904 Y10.1259
G01 X26.4574 Y10.1359
G01 X26.4847 Y10.1416
G01 X26.5413 Y10.1559
G01 X26.5679 Y10.1644
G01 X26.6141 Y10.1809
G01 X26.6315 Y10.1876
G01 X26.6485 Y10.1951
G01 X26.6929 Y10.2161
G01 X26.7177 Y10.2290
G01 X26.7757 Y10.2638
G01 X26.7987 Y10.2796
G01 X26.8456 Y10.3145
G01 X26.8669 Y10.3324
G01 X26.9033 Y10.3654
G01 X26.9168 Y10.3782
G01 X30.8173 Y14.2788
G01 X30.8563 Y14.2808
G01 X30.8748 Y14.2826
G01 X30.9709 Y14.2969
G01 X30.9982 Y14.3027
G01 X31.0833 Y14.3241
G01 X31.1099 Y14.3325
G01 X31.1839 Y14.3590
G01 X31.2012 Y14.3657
G01 X31.2182 Y14.3732
G01 X31.2976 Y14.4109
G01 X31.3220 Y14.4243
G01 X31.3893 Y14.4647
G01 X31.4051 Y14.4746
G01 X31.4203 Y14.4853
G01 X31.4833 Y14.5321
G01 X31.4980 Y14.5436
G01 X31.5121 Y14.5557
G01 X31.5703 Y14.6084
G01 X31.5837 Y14.6213
G01 X31.5966 Y14.6347
G01 X31.6555 Y14.6999
G01 X31.6729 Y14.7217
G01 X31.7197 Y14.7847
G01 X31.7304 Y14.7999
G01 X31.7403 Y14.8157
G01 X31.7807 Y14.8830
G01 X31.7899 Y14.8992
G01 X31.7982 Y14.9158
G01 X31.8318 Y14.9868
G01 X31.8393 Y15.0038
G01 X31.8460 Y15.0211
G01 X31.8725 Y15.0951
G01 X31.8783 Y15.1127
G01 X31.8833 Y15.1307
G01 X31.9023 Y15.2068
G01 X31.9064 Y15.2250
G01 X31.9096 Y15.2433
G01 X31.9211 Y15.3210
G01 X31.9234 Y15.3394
G01 X31.9248 Y15.3580
G01 X31.9286 Y15.4364
G01 X31.9291 Y15.4550
G01 X31.9286 Y15.4736
G01 X31.9242 Y15.5613
G01 X31.9211 Y15.5890
G01 X31.9096 Y15.6667
G01 X31.9064 Y15.6850
G01 X31.9023 Y15.7032
G01 X31.8833 Y15.7793
G01 X31.8783 Y15.7973
G01 X31.8725 Y15.8149
G01 X31.8460 Y15.8889
G01 X31.8393 Y15.9062
G01 X31.8318 Y15.9232
G01 X31.7982 Y15.9942
G01 X31.7899 Y16.0108
G01 X31.7807 Y16.0270
G01 X31.7403 Y16.0943
G01 X31.7304 Y16.1101
G01 X31.7197 Y16.1253
G01 X31.6729 Y16.1883
G01 X31.6614 Y16.2030
G01 X31.6493 Y16.2171
G01 X31.5902 Y16.2821
G01 X31.5703 Y16.3016
G01 X31.5121 Y16.3543
G01 X31.4980 Y16.3664
G01 X31.4833 Y16.3779
G01 X31.4203 Y16.4247
G01 X31.4051 Y16.4354
G01 X31.3893 Y16.4453
G01 X31.3220 Y16.4857
G01 X31.3058 Y16.4949
G01 X31.2892 Y16.5032
G01 X31.2182 Y16.5368
G01 X31.1926 Y16.5478
G01 X31.1099 Y16.5775
G01 X31.0923 Y16.5833
G01 X31.0743 Y16.5883
G01 X30.9982 Y16.6073
G01 X30.9800 Y16.6114
G01 X30.9617 Y16.6146
G01 X30.8840 Y16.6261
G01 X30.8656 Y16.6284
G01 X30.8470 Y16.6298
G01 X30.7686 Y16.6336
G01 X30.7500 Y16.6341
G01 X30.7314 Y16.6336
G01 X30.6530 Y16.6298
G01 X30.6344 Y16.6284
G01 X30.6160 Y16.6261
G01 X30.5291 Y16.6131
G01 X30.5018 Y16.6073
G01 X30.4257 Y16.5883
G01 X30.4077 Y16.5833
G01 X30.3901 Y16.5775
G01 X30.3161 Y16.5510
G01 X30.2988 Y16.5443
G01 X30.2818 Y16.5368
G01 X30.2024 Y16.4991
G01 X30.1780 Y16.4857
G01 X30.1107 Y16.4453
G01 X30.0873 Y16.4301
G01 X30.0093 Y16.3723
G01 X29.9949 Y16.3605
G01 X29.9659 Y16.3343
G01 X27.5342 Y16.3343
G01 X27.3651 Y16.5033
G01 X27.3219 Y16.5426
G01 X27.3078 Y16.5547
G01 X27.2932 Y16.5662
G01 X27.2537 Y16.5954
G01 X27.2385 Y16.6061
G01 X27.2228 Y16.6161
G01 X27.1727 Y16.6460
G01 X27.1563 Y16.6548
G01 X27.1035 Y16.6799
G01 X27.0865 Y16.6874
G01 X27.0691 Y16.6941
G01 X27.0141 Y16.7137
G01 X26.9873 Y16.7214
G01 X26.9397 Y16.7334
G01 X26.9215 Y16.7374
G01 X26.9032 Y16.7406
G01 X26.8454 Y16.7491
G01 X26.8176 Y16.7515
G01 X26.7686 Y16.7539
G01 X26.7500 Y16.7543
G01 X26.2166 Y16.7543
G01 X26.2364 Y16.7613
G01 X26.2621 Y16.7723
G01 X26.2868 Y16.7852
G01 X26.3106 Y16.7998
G01 X26.3332 Y16.8162
G01 X26.3546 Y16.8341
G01 X26.3745 Y16.8536
G01 X26.3930 Y16.8745
G01 X26.4099 Y16.8967
G01 X26.4251 Y16.9201
G01 X26.4343 Y16.9363
G01 X26.4466 Y16.9614
G01 X26.4569 Y16.9873
G01 X26.4653 Y17.0139
G01 X26.4718 Y17.0410
G01 X26.4762 Y17.0686
G01 X26.4786 Y17.0964
G01 X26.4791 Y17.1150
G01 X26.4791 Y18.8150
G01 X26.4781 Y18.8429
G01 X26.4750 Y18.8706
G01 X26.4699 Y18.8981
G01 X26.4653 Y18.9161
G01 X26.4599 Y18.9339
G01 X26.4537 Y18.9514
G01 X26.4466 Y18.9686
G01 X26.4343 Y18.9937
G01 X26.4203 Y19.0178
G01 X26.4045 Y19.0408
G01 X26.3870 Y19.0626
G01 X26.3680 Y19.0830
G01 X26.3476 Y19.1020
G01 X26.3332 Y19.1138
G01 X26.3183 Y19.1249
G01 X26.3028 Y19.1353
G01 X26.2868 Y19.1448
G01 X26.2621 Y19.1577
G01 X26.2364 Y19.1687
G01 X26.2100 Y19.1778
G01 X26.1831 Y19.1849
G01 X26.1556 Y19.1900
G01 X26.1279 Y19.1931
G01 X26.1000 Y19.1941
G01 X24.4000 Y19.1941
G01 X24.3721 Y19.1931
G01 X24.3444 Y19.1900
G01 X24.3260 Y19.1868
G01 X24.3079 Y19.1827
G01 X24.2811 Y19.1749
G01 X24.2549 Y19.1652
G01 X24.2379 Y19.1577
G01 X24.2213 Y19.1493
G01 X24.1972 Y19.1353
G01 X24.1742 Y19.1195
G01 X24.1595 Y19.1080
G01 X24.1454 Y19.0959
G01 X24.1255 Y19.0764
G01 X24.1070 Y19.0555
G01 X24.0955 Y19.0408
G01 X24.0848 Y19.0256
G01 X24.0702 Y19.0018
G01 X24.0614 Y18.9854
G01 X24.0534 Y18.9686
G01 X24.0463 Y18.9514
G01 X24.0401 Y18.9339
G01 X24.0323 Y18.9071
G01 X24.0265 Y18.8798
G01 X24.0238 Y18.8614
G01 X24.0221 Y18.8443
G01 X20.9650 Y18.8443
G01 X20.9464 Y18.8439
G01 X20.8881 Y18.8409
G01 X20.8603 Y18.8378
G01 X20.8118 Y18.8306
G01 X20.7935 Y18.8274
G01 X20.7753 Y18.8234
G01 X20.7277 Y18.8114
G01 X20.7009 Y18.8037
G01 X20.6459 Y18.7841
G01 X20.6285 Y18.7774
G01 X20.6115 Y18.7699
G01 X20.5587 Y18.7448
G01 X20.5343 Y18.7313
G01 X20.4922 Y18.7061
G01 X20.4765 Y18.6961
G01 X20.4613 Y18.6854
G01 X20.4218 Y18.6562
G01 X20.4000 Y18.6387
G01 X20.3567 Y18.5996
G01 X20.3432 Y18.5868
G01 X19.7939 Y18.0375
G01 X19.7808 Y18.0449
G01 X19.7642 Y18.0532
G01 X19.6932 Y18.0868
G01 X19.6762 Y18.0943
G01 X19.6589 Y18.1010
G01 X19.5849 Y18.1275
G01 X19.5673 Y18.1333
G01 X19.5493 Y18.1383
G01 X19.4732 Y18.1573
G01 X19.4550 Y18.1614
G01 X19.4367 Y18.1646
G01 X19.3590 Y18.1761
G01 X19.3406 Y18.1784
G01 X19.3220 Y18.1798
G01 X19.2436 Y18.1836
G01 X19.2250 Y18.1841
G01 X18.4157 Y18.1840
G01 X18.3280 Y18.1798
G01 X18.3094 Y18.1784
G01 X18.2910 Y18.1761
G01 X18.2133 Y18.1646
G01 X18.1950 Y18.1614
G01 X18.1768 Y18.1573
G01 X18.1007 Y18.1383
G01 X18.0827 Y18.1333
G01 X18.0651 Y18.1275
G01 X17.9911 Y18.1010
G01 X17.9738 Y18.0943
G01 X17.9568 Y18.0868
G01 X17.8858 Y18.0532
G01 X17.8692 Y18.0449
G01 X17.8530 Y18.0357
G01 X17.7857 Y17.9953
G01 X17.7630 Y17.9806
G01 X17.3793 Y18.3642
G01 X17.3793 Y19.0006
G01 X17.3851 Y18.9892
G01 X17.3943 Y18.9730
G01 X17.4347 Y18.9057
G01 X17.4446 Y18.8899
G01 X17.4553 Y18.8747
G01 X17.5021 Y18.8117
G01 X17.5136 Y18.7970
G01 X17.5257 Y18.7829
G01 X17.5784 Y18.7247
G01 X17.5913 Y18.7113
G01 X17.6047 Y18.6984
G01 X17.6629 Y18.6457
G01 X17.6770 Y18.6336
G01 X17.6917 Y18.6221
G01 X17.7547 Y18.5753
G01 X17.7699 Y18.5646
G01 X17.7857 Y18.5547
G01 X17.8530 Y18.5143
G01 X17.8692 Y18.5051
G01 X17.8858 Y18.4968
G01 X17.9568 Y18.4632
G01 X17.9738 Y18.4557
G01 X17.9911 Y18.4490
G01 X18.0651 Y18.4225
G01 X18.0827 Y18.4167
G01 X18.1007 Y18.4117
G01 X18.1768 Y18.3927
G01 X18.1950 Y18.3886
G01 X18.2133 Y18.3854
G01 X18.2910 Y18.3739
G01 X18.3094 Y18.3716
G01 X18.3280 Y18.3702
G01 X18.4157 Y18.3660
G01 X19.2343 Y18.3660
G01 X19.3220 Y18.3702
G01 X19.3498 Y18.3726
G01 X19.4459 Y18.3869
G01 X19.4732 Y18.3927
G01 X19.5493 Y18.4117
G01 X19.5673 Y18.4167
G01 X19.5849 Y18.4225
G01 X19.6589 Y18.4490
G01 X19.6762 Y18.4557
G01 X19.6932 Y18.4632
G01 X19.7642 Y18.4968
G01 X19.7808 Y18.5051
G01 X19.7970 Y18.5143
G01 X19.8643 Y18.5547
G01 X19.8801 Y18.5646
G01 X19.8953 Y18.5753
G01 X19.9583 Y18.6221
G01 X19.9730 Y18.6336
G01 X19.9871 Y18.6457
G01 X20.0521 Y18.7048
G01 X20.0716 Y18.7247
G01 X20.1243 Y18.7829
G01 X20.1364 Y18.7970
G01 X20.1479 Y18.8117
G01 X20.2001 Y18.8823
G01 X20.2153 Y18.9057
G01 X20.2604 Y18.9810
G01 X20.2691 Y18.9974
G01 X20.2946 Y19.0511
G01 X21.9443 Y20.7008
G01 X24.4659 Y20.7008
G01 X24.4949 Y20.6747
G01 X24.5093 Y20.6629
G01 X24.5797 Y20.6105
G01 X24.6027 Y20.5947
G01 X24.6780 Y20.5494
G01 X24.6942 Y20.5403
G01 X24.7108 Y20.5319
G01 X24.7818 Y20.4983
G01 X24.7988 Y20.4908
G01 X24.8161 Y20.4841
G01 X24.8901 Y20.4576
G01 X24.9077 Y20.4518
G01 X24.9257 Y20.4468
G01 X25.0109 Y20.4256
G01 X25.0383 Y20.4205
G01 X25.1252 Y20.4077
G01 X25.1437 Y20.4059
G01 X25.1827 Y20.4039
G01 X26.4033 Y19.1832
G01 X26.4168 Y19.1704
G01 X26.4602 Y19.1313
G01 X26.4819 Y19.1138
G01 X26.5214 Y19.0846
G01 X26.5366 Y19.0739
G01 X26.5523 Y19.0639
G01 X26.5944 Y19.0387
G01 X26.6189 Y19.0252
G01 X26.6801 Y18.9963
G01 X26.7060 Y18.9859
G01 X26.7522 Y18.9694
G01 X26.7699 Y18.9635
G01 X26.7878 Y18.9586
G01 X26.8354 Y18.9466
G01 X26.8627 Y18.9409
G01 X26.9205 Y18.9322
G01 X26.9389 Y18.9299
G01 X26.9575 Y18.9285
G01 X27.0065 Y18.9261
G01 X27.0251 Y18.9257
G01 X29.9659 Y18.9257
G01 X29.9949 Y18.8995
G01 X30.0093 Y18.8877
G01 X30.0797 Y18.8353
G01 X30.1027 Y18.8196
G01 X30.1780 Y18.7743
G01 X30.1942 Y18.7651
G01 X30.2108 Y18.7568
G01 X30.2818 Y18.7232
G01 X30.3074 Y18.7122
G01 X30.3901 Y18.6825
G01 X30.4077 Y18.6767
G01 X30.4257 Y18.6717
G01 X30.5018 Y18.6527
G01 X30.5200 Y18.6486
G01 X30.5383 Y18.6454
G01 X30.6160 Y18.6339
G01 X30.6344 Y18.6316
G01 X30.6530 Y18.6302
G01 X30.7314 Y18.6264
G01 X30.7500 Y18.6259
G01 X30.7686 Y18.6264
G01 X30.8470 Y18.6302
G01 X30.8656 Y18.6316
G01 X30.8840 Y18.6339
G01 X30.9617 Y18.6454
G01 X30.9800 Y18.6486
G01 X30.9982 Y18.6527
G01 X31.0743 Y18.6717
G01 X31.0923 Y18.6767
G01 X31.1099 Y18.6825
G01 X31.1839 Y18.7090
G01 X31.2012 Y18.7157
G01 X31.2182 Y18.7232
G01 X31.2892 Y18.7568
G01 X31.3058 Y18.7651
G01 X31.3220 Y18.7743
G01 X31.3893 Y18.8147
G01 X31.4051 Y18.8246
G01 X31.4203 Y18.8353
G01 X31.4833 Y18.8821
G01 X31.4980 Y18.8936
G01 X31.5121 Y18.9057
G01 X31.5703 Y18.9584
G01 X31.5837 Y18.9713
G01 X31.5966 Y18.9847
G01 X31.6493 Y19.0429
G01 X31.6614 Y19.0570
G01 X31.6729 Y19.0717
G01 X31.7197 Y19.1347
G01 X31.7304 Y19.1499
G01 X31.7403 Y19.1657
G01 X31.7807 Y19.2330
G01 X31.7899 Y19.2492
G01 X31.7982 Y19.2658
G01 X31.8318 Y19.3368
G01 X31.8393 Y19.3538
G01 X31.8460 Y19.3711
G01 X31.8725 Y19.4451
G01 X31.8783 Y19.4627
G01 X31.8833 Y19.4807
G01 X31.9023 Y19.5568
G01 X31.9064 Y19.5750
G01 X31.9096 Y19.5933
G01 X31.9211 Y19.6710
G01 X31.9234 Y19.6894
G01 X31.9248 Y19.7080
G01 X31.9286 Y19.7864
G01 X31.9291 Y19.8050
G01 X31.9286 Y19.8236
G01 X31.9248 Y19.9020
G01 X31.9234 Y19.9206
G01 X31.9211 Y19.9390
G01 X31.9096 Y20.0167
G01 X31.9064 Y20.0350
G01 X31.9023 Y20.0532
G01 X31.8833 Y20.1293
G01 X31.8783 Y20.1473
G01 X31.8725 Y20.1649
G01 X31.8460 Y20.2389
G01 X31.8393 Y20.2562
G01 X31.8318 Y20.2732
G01 X31.7982 Y20.3442
G01 X31.7899 Y20.3608
G01 X31.7807 Y20.3770
G01 X31.7403 Y20.4443
G01 X31.7304 Y20.4601
G01 X31.7197 Y20.4753
G01 X31.6729 Y20.5383
G01 X31.6614 Y20.5530
G01 X31.6493 Y20.5671
G01 X31.5966 Y20.6253
G01 X31.5837 Y20.6387
G01 X31.5703 Y20.6516
G01 X31.5121 Y20.7043
G01 X31.4980 Y20.7164
G01 X31.4833 Y20.7279
G01 X31.4203 Y20.7747
G01 X31.4051 Y20.7854
G01 X31.3893 Y20.7953
G01 X31.3220 Y20.8357
G01 X31.3058 Y20.8449
G01 X31.2892 Y20.8532
G01 X31.2182 Y20.8868
G01 X31.1926 Y20.8978
G01 X31.1011 Y20.9305
G01 X31.0743 Y20.9383
G01 X30.9982 Y20.9573
G01 X30.9800 Y20.9614
G01 X30.9617 Y20.9646
G01 X30.8840 Y20.9761
G01 X30.8656 Y20.9784
G01 X30.8470 Y20.9798
G01 X30.7686 Y20.9836
G01 X30.7500 Y20.9841
G01 X30.7314 Y20.9836
G01 X30.6530 Y20.9798
G01 X30.6344 Y20.9784
G01 X30.6160 Y20.9761
G01 X30.5383 Y20.9646
G01 X30.5109 Y20.9595
G01 X30.4167 Y20.9359
G01 X30.3901 Y20.9275
G01 X30.3161 Y20.9010
G01 X30.2988 Y20.8943
G01 X30.2818 Y20.8868
G01 X30.2024 Y20.8491
G01 X30.1780 Y20.8357
G01 X30.1107 Y20.7953
G01 X30.0873 Y20.7801
G01 X30.0093 Y20.7223
G01 X29.9949 Y20.7105
G01 X29.9659 Y20.6843
G01 X27.3893 Y20.6843
G01 X26.4262 Y21.6474
G01 X26.4242 Y21.6864
G01 X26.4224 Y21.7049
G01 X26.4096 Y21.7918
G01 X26.4045 Y21.8192
G01 X26.3833 Y21.9044
G01 X26.3783 Y21.9224
G01 X26.3725 Y21.9400
G01 X26.3460 Y22.0140
G01 X26.3357 Y22.0399
G01 X26.2982 Y22.1193
G01 X26.2899 Y22.1359
G01 X26.2807 Y22.1521
G01 X26.2403 Y22.2195
G01 X26.2304 Y22.2352
G01 X26.2197 Y22.2504
G01 X26.1729 Y22.3134
G01 X26.1614 Y22.3281
G01 X26.1493 Y22.3422
G01 X26.0902 Y22.4072
G01 X26.0703 Y22.4267
G01 X26.0121 Y22.4794
G01 X25.9980 Y22.4916
G01 X25.9833 Y22.5030
G01 X25.9203 Y22.5498
G01 X25.9051 Y22.5605
G01 X25.8893 Y22.5704
G01 X25.8140 Y22.6155
G01 X25.7892 Y22.6283
G01 X25.7182 Y22.6619
G01 X25.7012 Y22.6694
G01 X25.6839 Y22.6761
G01 X25.6099 Y22.7026
G01 X25.5923 Y22.7084
G01 X25.5743 Y22.7134
G01 X25.4982 Y22.7325
G01 X25.4800 Y22.7365
G01 X25.4617 Y22.7397
G01 X25.3840 Y22.7512
G01 X25.3656 Y22.7535
G01 X25.3470 Y22.7549
G01 X25.2686 Y22.7587
G01 X25.2500 Y22.7592
G01 X25.2314 Y22.7587
G01 X25.1530 Y22.7549
G01 X25.1344 Y22.7535
G01 X25.1160 Y22.7512
G01 X25.0383 Y22.7397
G01 X25.0200 Y22.7365
G01 X25.0018 Y22.7325
G01 X24.9257 Y22.7134
G01 X24.8989 Y22.7056
G01 X24.8161 Y22.6761
G01 X24.7988 Y22.6694
G01 X24.7818 Y22.6619
G01 X24.7108 Y22.6283
G01 X24.6860 Y22.6155
G01 X24.6107 Y22.5704
G01 X24.5873 Y22.5552
G01 X24.5093 Y22.4974
G01 X24.4949 Y22.4856
G01 X24.4659 Y22.4594
G01 X21.5708 Y22.4593
G01 X21.5125 Y22.4566
G01 X21.4939 Y22.4552
G01 X21.4755 Y22.4529
G01 X21.4269 Y22.4457
G01 X21.3995 Y22.4406
G01 X21.3428 Y22.4265
G01 X21.3160 Y22.4188
G01 X21.2610 Y22.3992
G01 X21.2436 Y22.3925
G01 X21.2266 Y22.3850
G01 X21.1979 Y22.3714
G01 X22.0273 Y23.2008
G01 X24.0793 Y23.2008
G01 X24.0823 Y23.1880
G01 X24.0872 Y23.1701
G01 X24.0963 Y23.1437
G01 X24.1073 Y23.1180
G01 X24.1202 Y23.0933
G01 X24.1348 Y23.0695
G01 X24.1512 Y23.0469
G01 X24.1691 Y23.0255
G01 X24.1886 Y23.0056
G01 X24.2095 Y22.9871
G01 X24.2317 Y22.9702
G01 X24.2551 Y22.9550
G01 X24.2713 Y22.9458
G01 X24.2879 Y22.9374
G01 X24.3136 Y22.9264
G01 X24.3400 Y22.9174
G01 X24.3669 Y22.9102
G01 X24.3944 Y22.9051
G01 X24.4221 Y22.9021
G01 X24.4500 Y22.9010
G01 X26.0500 Y22.9010
G01 X26.0686 Y22.9015
G01 X26.0872 Y22.9029
G01 X26.1056 Y22.9051
G01 X26.1331 Y22.9102
G01 X26.1600 Y22.9174
G01 X26.1864 Y22.9264
G01 X26.2036 Y22.9336
G01 X26.2204 Y22.9415
G01 X26.2449 Y22.9550
G01 X26.2606 Y22.9649
G01 X26.2758 Y22.9756
G01 X26.2976 Y22.9931
G01 X26.3180 Y23.0121
G01 X26.3370 Y23.0325
G01 X26.3545 Y23.0543
G01 X26.3652 Y23.0695
G01 X26.3751 Y23.0852
G01 X26.3843 Y23.1014
G01 X26.3927 Y23.1180
G01 X26.4037 Y23.1437
G01 X26.4128 Y23.1701
G01 X26.4177 Y23.1880
G01 X26.4207 Y23.2008
G01 X27.3394 Y23.2009
G01 X27.3977 Y23.2036
G01 X27.4163 Y23.2050
G01 X27.4348 Y23.2073
G01 X27.4925 Y23.2160
G01 X27.5108 Y23.2196
G01 X27.5674 Y23.2337
G01 X27.5854 Y23.2386
G01 X27.6030 Y23.2445
G01 X27.6493 Y23.2610
G01 X27.6666 Y23.2677
G01 X27.6836 Y23.2753
G01 X27.7280 Y23.2962
G01 X27.7446 Y23.3046
G01 X27.7608 Y23.3138
G01 X27.8108 Y23.3439
G01 X27.8339 Y23.3597
G01 X27.8733 Y23.3889
G01 X27.8880 Y23.4004
G01 X27.9020 Y23.4125
G01 X27.9452 Y23.4518
G01 X33.1218 Y28.6282
G01 X33.1346 Y28.6417
G01 X33.1676 Y28.6781
G01 X33.1797 Y28.6922
G01 X33.1912 Y28.7068
G01 X33.2204 Y28.7463
G01 X33.2311 Y28.7615
G01 X33.2411 Y28.7772
G01 X33.2663 Y28.8193
G01 X33.2755 Y28.8355
G01 X33.2839 Y28.8521
G01 X33.3087 Y28.9049
G01 X33.3191 Y28.9309
G01 X33.3356 Y28.9771
G01 X33.3415 Y28.9947
G01 X33.3464 Y29.0127
G01 X33.3584 Y29.0603
G01 X33.3624 Y29.0785
G01 X33.3656 Y29.0968
G01 X33.3728 Y29.1453
G01 X33.3751 Y29.1638
G01 X33.3765 Y29.1824
G01 X33.3792 Y29.2407
G01 X33.3792 Y31.0093
G01 X33.3765 Y31.0676
G01 X33.3751 Y31.0862
G01 X33.3728 Y31.1047
G01 X33.3656 Y31.1532
G01 X33.3624 Y31.1715
G01 X33.3584 Y31.1897
G01 X33.3441 Y31.2463
G01 X33.3387 Y31.2641
G01 X33.3191 Y31.3191
G01 X33.3124 Y31.3365
G01 X33.3049 Y31.3535
G01 X33.2839 Y31.3979
G01 X33.2710 Y31.4227
G01 X33.2411 Y31.4728
G01 X33.2259 Y31.4962
G01 X33.1855 Y31.5506
G01 X33.1676 Y31.5719
G01 X33.1346 Y31.6083
G01 X33.1218 Y31.6218
G01 X32.1151 Y32.6283
G01 X32.0719 Y32.6676
G01 X32.0578 Y32.6797
G01 X32.0432 Y32.6912
G01 X32.0037 Y32.7204
G01 X31.9885 Y32.7311
G01 X31.9728 Y32.7411
G01 X31.9307 Y32.7663
G01 X31.9145 Y32.7755
G01 X31.8979 Y32.7839
G01 X31.8535 Y32.8049
G01 X31.8365 Y32.8124
G01 X31.8191 Y32.8191
G01 X31.7729 Y32.8356
G01 X31.7553 Y32.8415
G01 X31.7373 Y32.8464
G01 X31.6897 Y32.8584
G01 X31.6715 Y32.8624
G01 X31.6532 Y32.8656
G01 X31.6047 Y32.8728
G01 X31.5862 Y32.8751
G01 X31.5676 Y32.8765
G01 X31.5093 Y32.8792
G01 X27.2757 Y32.8792
G01 X27.2081 Y32.8759
G01 X27.1803 Y32.8728
G01 X27.1318 Y32.8656
G01 X27.1135 Y32.8624
G01 X27.0953 Y32.8584
G01 X27.0477 Y32.8464
G01 X27.0209 Y32.8387
G01 X26.9659 Y32.8191
G01 X26.9485 Y32.8124
G01 X26.9315 Y32.8049
G01 X26.8871 Y32.7839
G01 X26.8623 Y32.7710
G01 X26.8043 Y32.7362
G01 X26.7813 Y32.7204
G01 X26.7418 Y32.6912
G01 X26.7272 Y32.6797
G01 X26.7131 Y32.6676
G01 X26.6699 Y32.6283
G01 X25.2355 Y31.1941
G01 X24.4000 Y31.1941
G01 X24.3721 Y31.1931
G01 X24.3444 Y31.1900
G01 X24.3169 Y31.1849
G01 X24.2989 Y31.1803
G01 X24.2811 Y31.1749
G01 X24.2636 Y31.1687
G01 X24.2464 Y31.1616
G01 X24.2296 Y31.1536
G01 X24.2132 Y31.1448
G01 X24.1972 Y31.1353
G01 X24.1817 Y31.1249
G01 X24.1668 Y31.1138
G01 X24.1524 Y31.1020
G01 X24.1320 Y31.0830
G01 X24.1191 Y31.0696
G01 X24.1070 Y31.0555
G01 X24.0955 Y31.0408
G01 X24.0848 Y31.0256
G01 X24.0702 Y31.0018
G01 X24.0573 Y30.9771
G01 X24.0463 Y30.9514
G01 X24.0372 Y30.9250
G01 X24.0301 Y30.8981
G01 X24.0250 Y30.8706
G01 X24.0227 Y30.8522
G01 X24.0210 Y30.8243
G01 X24.0209 Y29.1150
G01 X24.0214 Y29.0964
G01 X24.0227 Y29.0778
G01 X24.0250 Y29.0594
G01 X24.0282 Y29.0410
G01 X24.0347 Y29.0139
G01 X24.0401 Y28.9961
G01 X24.0498 Y28.9699
G01 X24.0573 Y28.9529
G01 X24.0702 Y28.9282
G01 X24.0848 Y28.9044
G01 X24.0955 Y28.8892
G01 X24.1130 Y28.8674
G01 X24.1255 Y28.8536
G01 X24.1386 Y28.8405
G01 X24.1524 Y28.8280
G01 X24.1668 Y28.8162
G01 X24.1894 Y28.7998
G01 X24.2132 Y28.7852
G01 X24.2379 Y28.7723
G01 X24.2636 Y28.7613
G01 X24.2900 Y28.7522
G01 X24.3169 Y28.7451
G01 X24.3444 Y28.7400
G01 X24.3721 Y28.7369
G01 X24.4000 Y28.7359
G01 X26.1093 Y28.7360
G01 X26.1279 Y28.7369
G01 X26.1556 Y28.7400
G01 X26.1831 Y28.7451
G01 X26.2100 Y28.7522
G01 X26.2364 Y28.7613
G01 X26.2621 Y28.7723
G01 X26.2868 Y28.7852
G01 X26.3106 Y28.7998
G01 X26.3258 Y28.8105
G01 X26.3476 Y28.8280
G01 X26.3614 Y28.8405
G01 X26.3745 Y28.8536
G01 X26.3870 Y28.8674
G01 X26.3988 Y28.8818
G01 X26.4099 Y28.8967
G01 X26.4203 Y28.9122
G01 X26.4298 Y28.9282
G01 X26.4386 Y28.9446
G01 X26.4466 Y28.9614
G01 X26.4537 Y28.9786
G01 X26.4628 Y29.0050
G01 X26.4677 Y29.0229
G01 X26.4718 Y29.0410
G01 X26.4750 Y29.0594
G01 X26.4781 Y29.0871
G01 X26.4791 Y29.1150
G01 X26.4791 Y29.9505
G01 X27.6492 Y31.1207
G01 X30.5164 Y31.1207
G01 X30.5018 Y31.1173
G01 X30.4257 Y31.0983
G01 X30.4077 Y31.0933
G01 X30.3901 Y31.0875
G01 X30.3161 Y31.0610
G01 X30.2988 Y31.0543
G01 X30.2818 Y31.0468
G01 X30.2108 Y31.0132
G01 X30.1942 Y31.0049
G01 X30.1780 Y30.9957
G01 X30.1107 Y30.9553
G01 X30.0949 Y30.9454
G01 X30.0797 Y30.9347
G01 X30.0167 Y30.8879
G01 X30.0020 Y30.8764
G01 X29.9879 Y30.8643
G01 X29.9297 Y30.8116
G01 X29.9098 Y30.7921
G01 X29.8507 Y30.7271
G01 X29.8386 Y30.7130
G01 X29.8271 Y30.6983
G01 X29.7803 Y30.6353
G01 X29.7696 Y30.6201
G01 X29.7597 Y30.6043
G01 X29.7193 Y30.5370
G01 X29.7101 Y30.5208
G01 X29.7018 Y30.5042
G01 X29.6643 Y30.4248
G01 X29.6540 Y30.3989
G01 X29.6275 Y30.3249
G01 X29.6217 Y30.3073
G01 X29.6167 Y30.2893
G01 X29.5955 Y30.2041
G01 X29.5904 Y30.1767
G01 X29.5776 Y30.0898
G01 X29.5758 Y30.0713
G01 X29.5738 Y30.0323
G01 X26.4208 Y26.8793
G01 X20.2000 Y26.8793
G01 X20.1814 Y26.8789
G01 X20.1324 Y26.8765
G01 X20.1138 Y26.8751
G01 X20.0953 Y26.8728
G01 X20.0468 Y26.8656
G01 X20.0285 Y26.8624
G01 X20.0103 Y26.8584
G01 X19.9537 Y26.8441
G01 X19.9359 Y26.8387
G01 X19.8809 Y26.8191
G01 X19.8635 Y26.8124
G01 X19.8465 Y26.8049
G01 X19.8021 Y26.7839
G01 X19.7855 Y26.7755
G01 X19.7693 Y26.7663
G01 X19.7272 Y26.7411
G01 X19.7115 Y26.7311
G01 X19.6963 Y26.7204
G01 X19.6568 Y26.6912
G01 X19.6350 Y26.6737
G01 X19.5917 Y26.6346
G01 X19.5782 Y26.6218
G01 X18.7605 Y25.8041
G01 X17.6250 Y25.8041
G01 X17.5971 Y25.8031
G01 X17.5786 Y25.8012
G01 X17.5602 Y25.7985
G01 X17.5329 Y25.7927
G01 X17.5061 Y25.7849
G01 X17.4799 Y25.7752
G01 X17.4546 Y25.7636
G01 X17.4301 Y25.7501
G01 X17.4067 Y25.7349
G01 X17.3845 Y25.7180
G01 X17.3636 Y25.6995
G01 X17.3505 Y25.6864
G01 X17.3380 Y25.6726
G01 X17.3262 Y25.6582
G01 X17.3151 Y25.6433
G01 X17.3047 Y25.6278
G01 X17.2952 Y25.6118
G01 X17.2864 Y25.5954
G01 X17.2784 Y25.5786
G01 X17.2681 Y25.5527
G01 X17.2597 Y25.5261
G01 X17.2551 Y25.5081
G01 X17.2515 Y25.4898
G01 X17.2477 Y25.4622
G01 X17.2464 Y25.4436
G01 X17.2459 Y25.4250
G01 X17.2459 Y24.8895
G01 X15.8793 Y23.5229
G01 X15.8793 Y27.5908
G01 X17.1368 Y28.8482
G01 X17.1496 Y28.8617
G01 X17.1826 Y28.8981
G01 X17.1947 Y28.9122
G01 X17.2062 Y28.9269
G01 X17.2417 Y28.9750
G01 X17.2875 Y29.0091
G01 X17.3018 Y29.0209
G01 X17.3774 Y29.0894
G01 X17.3969 Y29.1094
G01 X17.4529 Y29.1712
G01 X17.4709 Y29.1925
G01 X17.5262 Y29.2669
G01 X17.5369 Y29.2822
G01 X17.5469 Y29.2979
G01 X17.5898 Y29.3694
G01 X17.5990 Y29.3856
G01 X17.6073 Y29.4022
G01 X17.6430 Y29.4776
G01 X17.6505 Y29.4947
G01 X17.6572 Y29.5120
G01 X17.6853 Y29.5905
G01 X17.6937 Y29.6172
G01 X17.7164 Y29.7071
G01 X17.7205 Y29.7252
G01 X17.7236 Y29.7436
G01 X17.7359 Y29.8261
G01 X17.7382 Y29.8445
G01 X17.7395 Y29.8631
G01 X17.7436 Y29.9464
G01 X17.7440 Y29.9743
G01 X17.7395 Y30.0669
G01 X17.7382 Y30.0855
G01 X17.7359 Y30.1039
G01 X17.7236 Y30.1864
G01 X17.7205 Y30.2048
G01 X17.7164 Y30.2229
G01 X17.6961 Y30.3039
G01 X17.6912 Y30.3218
G01 X17.6853 Y30.3395
G01 X17.6572 Y30.4180
G01 X17.6505 Y30.4353
G01 X17.6430 Y30.4524
G01 X17.6073 Y30.5278
G01 X17.5990 Y30.5444
G01 X17.5898 Y30.5606
G01 X17.5469 Y30.6321
G01 X17.5369 Y30.6478
G01 X17.5262 Y30.6631
G01 X17.4765 Y30.7301
G01 X17.4651 Y30.7447
G01 X17.4529 Y30.7588
G01 X17.3943 Y30.8234
G01 X17.3942 Y31.1764
G01 X17.3915 Y31.2347
G01 X17.3901 Y31.2533
G01 X17.3878 Y31.2717
G01 X17.3791 Y31.3295
G01 X17.3734 Y31.3568
G01 X17.3614 Y31.4044
G01 X17.3565 Y31.4223
G01 X17.3506 Y31.4400
G01 X17.3341 Y31.4862
G01 X17.3274 Y31.5036
G01 X17.3199 Y31.5206
G01 X17.2989 Y31.5650
G01 X17.2905 Y31.5816
G01 X17.2813 Y31.5978
G01 X17.2512 Y31.6478
G01 X17.2354 Y31.6708
G01 X17.2062 Y31.7103
G01 X17.1947 Y31.7249
G01 X17.1826 Y31.7390
G01 X17.1496 Y31.7754
G01 X17.1368 Y31.7889
G01 X15.8039 Y33.1218
G01 X15.7904 Y33.1346
G01 X15.7540 Y33.1676
G01 X15.7399 Y33.1797
G01 X15.7253 Y33.1912
G01 X15.6858 Y33.2204
G01 X15.6628 Y33.2362
G01 X15.6128 Y33.2663
G01 X15.5966 Y33.2755
G01 X15.5800 Y33.2839
G01 X15.5356 Y33.3049
G01 X15.5099 Y33.3158
G01 X15.4550 Y33.3356
G01 X15.4373 Y33.3415
G01 X15.4194 Y33.3464
G01 X15.3627 Y33.3605
G01 X15.3353 Y33.3656
G01 X15.2867 Y33.3728
G01 X15.2683 Y33.3751
G01 X15.2497 Y33.3765
G01 X15.1914 Y33.3792
G01 X7.5350 Y33.3793
G01 X7.5164 Y33.3789
G01 X7.4674 Y33.3765
G01 X7.4488 Y33.3751
G01 X7.4303 Y33.3728
G01 X7.3726 Y33.3641
G01 X7.3543 Y33.3605
G01 X7.2977 Y33.3464
G01 X7.2797 Y33.3415
G01 X7.2621 Y33.3356
G01 X7.2159 Y33.3191
G01 X7.1985 Y33.3124
G01 X7.1815 Y33.3049
G01 X7.1287 Y33.2798
G01 X7.1123 Y33.2710
G01 X7.0622 Y33.2411
G01 X7.0388 Y33.2259
G01 X6.9918 Y33.1912
G01 X6.9772 Y33.1797
G01 X6.9631 Y33.1676
G01 X6.9267 Y33.1346
G01 X6.9132 Y33.1218
G01 X4.9855 Y31.1941
G01 X4.1500 Y31.1941
G01 X4.1314 Y31.1936
G01 X4.1128 Y31.1923
G01 X4.0852 Y31.1885
G01 X4.0669 Y31.1849
G01 X4.0489 Y31.1803
G01 X4.0311 Y31.1749
G01 X4.0136 Y31.1687
G01 X3.9879 Y31.1577
G01 X3.9632 Y31.1448
G01 X3.9394 Y31.1302
G01 X3.9168 Y31.1138
G01 X3.9024 Y31.1020
G01 X3.8886 Y31.0895
G01 X3.8755 Y31.0764
G01 X3.8630 Y31.0626
G01 X3.8512 Y31.0482
G01 X3.8401 Y31.0333
G01 X3.8297 Y31.0178
G01 X3.8202 Y31.0018
G01 X3.8114 Y30.9854
G01 X3.8034 Y30.9686
G01 X3.7963 Y30.9514
G01 X3.7872 Y30.9250
G01 X3.7823 Y30.9071
G01 X3.7782 Y30.8890
G01 X3.7750 Y30.8706
G01 X3.7727 Y30.8522
G01 X3.7714 Y30.8336
G01 X3.7709 Y30.8150
G01 X3.7709 Y29.1150
G01 X3.7714 Y29.0964
G01 X3.7727 Y29.0778
G01 X3.7750 Y29.0594
G01 X3.7801 Y29.0319
G01 X3.7872 Y29.0050
G01 X3.7963 Y28.9786
G01 X3.8034 Y28.9614
G01 X3.8114 Y28.9446
G01 X3.8249 Y28.9201
G01 X3.8401 Y28.8967
G01 X3.8512 Y28.8818
G01 X3.8630 Y28.8674
G01 X3.8755 Y28.8536
G01 X3.8886 Y28.8405
G01 X3.9024 Y28.8280
G01 X3.9168 Y28.8162
G01 X3.9317 Y28.8051
G01 X3.9472 Y28.7947
G01 X3.9632 Y28.7852
G01 X3.9796 Y28.7764
G01 X3.9964 Y28.7684
G01 X4.0136 Y28.7613
G01 X4.0311 Y28.7551
G01 X4.0489 Y28.7497
G01 X4.0669 Y28.7451
G01 X4.0852 Y28.7415
G01 X4.1036 Y28.7388
G01 X4.1221 Y28.7369
G01 X4.1500 Y28.7359
G01 X5.8500 Y28.7359
G01 X5.8686 Y28.7364
G01 X5.8872 Y28.7377
G01 X5.9148 Y28.7415
G01 X5.9421 Y28.7473
G01 X5.9689 Y28.7551
G01 X5.9951 Y28.7648
G01 X6.0204 Y28.7764
G01 X6.0449 Y28.7899
G01 X6.0683 Y28.8051
G01 X6.0832 Y28.8162
G01 X6.0976 Y28.8280
G01 X6.1180 Y28.8470
G01 X6.1370 Y28.8674
G01 X6.1545 Y28.8892
G01 X6.1703 Y28.9122
G01 X6.1843 Y28.9363
G01 X6.1966 Y28.9614
G01 X6.2069 Y28.9873
G01 X6.2153 Y29.0139
G01 X6.2199 Y29.0319
G01 X6.2250 Y29.0594
G01 X6.2281 Y29.0871
G01 X6.2290 Y29.1057
G01 X6.2291 Y29.9505
G01 X7.8992 Y31.6207
G01 X8.6853 Y31.6207
G01 X8.6722 Y31.5967
G01 X8.6642 Y31.5795
G01 X8.6537 Y31.5531
G01 X8.6479 Y31.5351
G01 X8.6408 Y31.5076
G01 X8.6278 Y31.4472
G01 X8.6248 Y31.4295
G01 X8.6226 Y31.4115
G01 X8.6213 Y31.3935
G01 X8.6209 Y31.3755
G01 X8.6209 Y30.8791
G01 X8.1150 Y30.8790
G01 X8.0970 Y30.8781
G01 X8.0700 Y30.8752
G01 X8.0434 Y30.8704
G01 X8.0172 Y30.8637
G01 X7.9412 Y30.8413
G01 X7.9234 Y30.8351
G01 X7.9059 Y30.8280
G01 X7.8889 Y30.8201
G01 X7.8640 Y30.8066
G01 X7.8403 Y30.7914
G01 X7.8251 Y30.7802
G01 X7.8034 Y30.7621
G01 X7.7831 Y30.7425
G01 X7.7705 Y30.7286
G01 X7.7247 Y30.6758
G01 X7.7127 Y30.6611
G01 X7.7014 Y30.6459
G01 X7.6859 Y30.6221
G01 X7.6766 Y30.6056
G01 X7.6681 Y30.5887
G01 X7.6605 Y30.5713
G01 X7.6507 Y30.5447
G01 X7.6453 Y30.5265
G01 X7.6408 Y30.5081
G01 X7.6278 Y30.4477
G01 X7.6236 Y30.4210
G01 X7.6213 Y30.3940
G01 X7.6209 Y30.3760
G01 X7.6209 Y29.6240
G01 X7.6213 Y29.6060
G01 X7.6236 Y29.5790
G01 X7.6278 Y29.5523
G01 X7.6338 Y29.5259
G01 X7.6560 Y29.4502
G01 X7.6617 Y29.4322
G01 X7.6720 Y29.4059
G01 X7.6799 Y29.3889
G01 X7.6934 Y29.3640
G01 X7.7086 Y29.3403
G01 X7.7198 Y29.3251
G01 X7.7317 Y29.3105
G01 X7.7508 Y29.2897
G01 X7.7714 Y29.2705
G01 X7.8242 Y29.2247
G01 X7.8389 Y29.2127
G01 X7.8619 Y29.1960
G01 X7.8861 Y29.1811
G01 X7.9113 Y29.1681
G01 X7.9287 Y29.1605
G01 X7.9464 Y29.1537
G01 X7.9644 Y29.1479
G01 X7.9827 Y29.1429
G01 X8.0523 Y29.1278
G01 X8.0700 Y29.1248
G01 X8.0970 Y29.1219
G01 X8.1240 Y29.1209
G01 X8.6209 Y29.1209
G01 X8.6209 Y28.6115
G01 X8.6219 Y28.5844
G01 X8.6236 Y28.5665
G01 X8.6262 Y28.5486
G01 X8.6296 Y28.5309
G01 X8.6338 Y28.5133
G01 X8.6560 Y28.4376
G01 X8.6617 Y28.4197
G01 X8.6683 Y28.4021
G01 X8.6799 Y28.3763
G01 X8.6887 Y28.3597
G01 X8.6983 Y28.3435
G01 X8.7141 Y28.3201
G01 X8.7317 Y28.2980
G01 X8.7508 Y28.2772
G01 X8.7714 Y28.2579
G01 X8.8312 Y28.2063
G01 X8.8530 Y28.1896
G01 X8.8760 Y28.1745
G01 X8.8918 Y28.1654
G01 X8.9164 Y28.1532
G01 X8.9418 Y28.1428
G01 X8.9679 Y28.1343
G01 X8.9946 Y28.1277
G01 X9.0570 Y28.1147
G01 X9.0847 Y28.1106
G01 X9.1126 Y28.1086
G01 X9.1312 Y28.1084
G01 X9.8832 Y28.1192
G01 X9.9102 Y28.1206
G01 X9.9282 Y28.1225
G01 X9.9460 Y28.1254
G01 X9.9724 Y28.1312
G01 X9.9898 Y28.1361
G01 X10.0565 Y28.1567
G01 X10.0744 Y28.1627
G01 X10.1005 Y28.1734
G01 X10.1258 Y28.1860
G01 X10.1421 Y28.1954
G01 X10.1656 Y28.2110
G01 X10.1807 Y28.2223
G01 X10.1951 Y28.2344
G01 X10.2089 Y28.2472
G01 X10.2221 Y28.2607
G01 X10.2345 Y28.2748
G01 X10.2795 Y28.3282
G01 X10.2912 Y28.3428
G01 X10.3021 Y28.3579
G01 X10.3123 Y28.3736
G01 X10.3217 Y28.3897
G01 X10.3303 Y28.4063
G01 X10.3381 Y28.4233
G01 X10.3450 Y28.4406
G01 X10.3510 Y28.4583
G01 X10.3562 Y28.4762
G01 X10.3605 Y28.4944
G01 X10.3710 Y28.5443
G01 X10.3745 Y28.5636
G01 X10.3759 Y28.5733
G01 X10.3779 Y28.5928
G01 X10.3790 Y28.6124
G01 X10.3791 Y29.1209
G01 X10.8760 Y29.1209
G01 X10.8940 Y29.1213
G01 X10.9120 Y29.1226
G01 X10.9300 Y29.1248
G01 X10.9477 Y29.1278
G01 X10.9654 Y29.1316
G01 X10.9828 Y29.1363
G01 X11.0498 Y29.1560
G01 X11.0678 Y29.1617
G01 X11.0941 Y29.1720
G01 X11.1111 Y29.1799
G01 X11.1360 Y29.1934
G01 X11.1519 Y29.2034
G01 X11.1674 Y29.2141
G01 X11.1823 Y29.2256
G01 X11.2035 Y29.2443
G01 X11.2169 Y29.2575
G01 X11.2295 Y29.2714
G01 X11.2814 Y29.3315
G01 X11.2931 Y29.3464
G01 X11.3040 Y29.3619
G01 X11.3141 Y29.3779
G01 X11.3278 Y29.4028
G01 X11.3395 Y29.4287
G01 X11.3463 Y29.4464
G01 X11.3521 Y29.4644
G01 X11.3571 Y29.4827
G01 X11.3722 Y29.5523
G01 X11.3752 Y29.5700
G01 X11.3774 Y29.5880
G01 X11.3790 Y29.6150
G01 X11.3790 Y30.3850
G01 X11.3781 Y30.4030
G01 X11.3752 Y30.4300
G01 X11.3722 Y30.4477
G01 X11.3684 Y30.4654
G01 X11.3637 Y30.4828
G01 X11.3413 Y30.5588
G01 X11.3317 Y30.5854
G01 X11.3242 Y30.6027
G01 X11.3158 Y30.6195
G01 X11.3017 Y30.6440
G01 X11.2859 Y30.6674
G01 X11.2683 Y30.6895
G01 X11.2492 Y30.7103
G01 X11.2356 Y30.7233
G01 X11.1758 Y30.7753
G01 X11.1611 Y30.7873
G01 X11.1459 Y30.7986
G01 X11.1302 Y30.8092
G01 X11.1139 Y30.8189
G01 X11.0887 Y30.8319
G01 X11.0713 Y30.8395
G01 X11.0536 Y30.8463
G01 X11.0356 Y30.8521
G01 X11.0081 Y30.8592
G01 X10.9477 Y30.8722
G01 X10.9210 Y30.8764
G01 X10.8940 Y30.8787
G01 X10.8760 Y30.8791
G01 X10.3791 Y30.8791
G01 X10.3791 Y31.3755
G01 X10.3787 Y31.3935
G01 X10.3774 Y31.4115
G01 X10.3738 Y31.4384
G01 X10.3684 Y31.4649
G01 X10.3637 Y31.4823
G01 X10.3440 Y31.5493
G01 X10.3383 Y31.5673
G01 X10.3317 Y31.5849
G01 X10.3242 Y31.6022
G01 X10.3149 Y31.6207
G01 X14.8179 Y31.6207
G01 X15.6259 Y30.8127
G01 X15.5771 Y30.7588
G01 X15.5649 Y30.7447
G01 X15.5535 Y30.7301
G01 X15.5038 Y30.6631
G01 X15.4880 Y30.6400
G01 X15.4402 Y30.5606
G01 X15.4310 Y30.5444
G01 X15.4227 Y30.5278
G01 X15.3870 Y30.4524
G01 X15.3795 Y30.4353
G01 X15.3728 Y30.4180
G01 X15.3447 Y30.3395
